(new mold star 2)
(T2  D=3. CR=0. - ZMIN=-31. - flat end mill)
G90
G53 G0 Z0.

(Adaptive1)
T2 M6 (flat end mill D=3. 3mm Flat Endmill)
S10000 M3
G64
G54
G43 H2
G0 X1.414 Y0.734
Z15.
Z5.
Z2.5
G3 X-0.734 Y1.414 Z2.413 I-1.414 J-0.734 F500
X-1.295 Y0.929 Z2.386 I0.734 J-1.414
X-0.93 Y-1.292 Z2.299 I1.293 J-0.928
X-0.245 Y-1.572 Z2.273 I0.928 J1.293
X1.569 Y-0.244 Z2.186 I0.243 J1.571
X1.509 Y0.493 Z2.159 I-1.571 J0.243
X-0.493 Y1.509 Z2.072 I-1.509 J-0.493
X-1.123 Y1.123 Z2.046 I0.493 J-1.509
Y-1.12 Z1.958 I1.121 J-1.121
X-0.494 Y-1.506 Z1.932 I1.121 J1.121
X1.503 Y-0.493 Z1.845 I0.492 J1.505
X1.563 Y0.241 Z1.819 I-1.505 J0.492
X-0.241 Y1.563 Z1.731 I-1.563 J-0.241
X-0.922 Y1.285 Z1.705 I0.241 J-1.563
X-1.285 Y-0.92 Z1.618 I0.921 J-1.283
X-0.729 Y-1.401 Z1.592 I1.283 J0.921
X1.398 Y-0.728 Z1.504 I0.727 J1.4
X1.576 Y-0.016 Z1.478 I-1.4 J0.727
X0.015 Y1.575 Z1.391 I-1.576 J0.015
X-0.699 Y1.412 Z1.365 I-0.015 J-1.576
X-1.411 Y-0.697 Z1.277 I0.698 J-1.41
X-0.943 Y-1.259 Z1.251 I1.41 J0.698
X1.257 Y-0.941 Z1.164 I0.941 J1.259
X1.546 Y-0.27 Z1.138 I-1.259 J0.941
X0.269 Y1.546 Z1.05 I-1.547 J0.269
X-0.46 Y1.501 Z1.024 I-0.269 J-1.547
X-1.5 Y-0.457 Z0.937 I0.459 J-1.499
X-1.131 Y-1.086 Z0.911 I1.499 J0.459
X1.083 Y-1.128 Z0.823 I1.128 J1.086
X1.476 Y-0.515 Z0.797 I-1.086 J1.128
X0.514 Y1.476 Z0.71 I-1.477 J0.515
X-0.209 Y1.549 Z0.683 I-0.515 J-1.477
X-1.549 Y-0.208 Z0.596 I0.209 J-1.548
X-1.287 Y-0.885 Z0.57 I1.548 J0.209
X0.883 Y-1.284 Z0.482 I1.285 J0.885
X1.368 Y-0.745 Z0.456 I-0.885 J1.285
X0.744 Y1.368 Z0.369 I-1.369 J0.744
X0.044 Y1.556 Z0.343 I-0.744 J-1.369
X-1.556 Y0.046 Z0.255 I-0.045 J-1.555
X-1.408 Y-0.662 Z0.229 I1.555 J-0.045
X0.66 Y-1.405 Z0.142 I1.406 J0.663
X1.224 Y-0.954 Z0.116 I-0.663 J1.406
X0.952 Y1.224 Z0.028 I-1.225 J0.953
X0.295 Y1.523 Z0.002 I-0.953 J-1.225
X-1.522 Y0.296 Z-0.085 I-0.295 J-1.522
X-1.491 Y-0.424 Z-0.111 I1.522 J-0.295
X0.422 Y-1.488 Z-0.199 I1.489 J0.424
X1.05 Y-1.135 Z-0.225 I-0.424 J1.489
X1.133 Y1.049 Z-0.312 I-1.051 J1.134
X0.536 Y1.449 Z-0.338 I-1.134 J-1.051
X-1.448 Y0.537 Z-0.426 I-0.536 J-1.448
X-1.534 Y-0.176 Z-0.452 I1.448 J-0.536
X0.175 Y-1.531 Z-0.539 I1.532 J0.177
X0.848 Y-1.286 Z-0.565 I-0.177 J1.532
X1.284 Y0.848 Z-0.653 I-0.849 J1.285
X0.76 Y1.338 Z-0.679 I-1.285 J-0.849
X-1.337 Y0.761 Z-0.766 I-0.761 J-1.337
X-1.537 Y0.074 Z-0.793 I1.337 J-0.761
X-0.076 Y-1.534 Z-0.88 I1.534 J-0.074
X0.626 Y-1.401 Z-0.906 I0.074 J1.534
X1.399 Y0.626 Z-0.993 I-0.628 J1.4
X0.963 Y1.192 Z-1.02 I-1.4 J-0.628
X-1.191 Y0.964 Z-1.107 I-0.964 J-1.191
X-1.498 Y0.321 Z-1.133 I1.191 J-0.964
X-0.322 Y-1.495 Z-1.221 I1.496 J-0.32
X0.389 Y-1.478 Z-1.247 I0.32 J1.496
X1.476 Y0.39 Z-1.334 I-0.391 J1.477
X1.139 Y1.016 Z-1.36 I-1.477 J-0.391
X-1.015 Y1.14 Z-1.448 I-1.139 J-1.015
X-1.421 Y0.557 Z-1.474 I1.015 J-1.139
X-0.558 Y-1.418 Z-1.561 I1.419 J-0.556
X0.144 Y-1.516 Z-1.587 I0.556 J1.419
X1.514 Y0.145 Z-1.675 I-0.146 J1.515
X1.284 Y0.814 Z-1.701 I-1.515 J-0.146
X-0.814 Y1.284 Z-1.788 I-1.284 J-0.814
X-1.307 Y0.777 Z-1.814 I0.814 J-1.284
X-0.778 Y-1.304 Z-1.902 I1.305 J-0.776
X-0.103 Y-1.514 Z-1.928 I0.776 J1.305
X1.511 Y-0.103 Z-2.015 I0.102 J1.513
X1.393 Y0.593 Z-2.041 I-1.513 J0.102
X-0.593 Y1.393 Z-2.129 I-1.394 J-0.593
X-1.159 Y0.975 Z-2.155 I0.593 J-1.394
X-0.975 Y-1.156 Z-2.242 I1.157 J-0.973
X-0.346 Y-1.471 Z-2.268 I0.973 J1.157
X1.469 Y-0.345 Z-2.356 I0.344 J1.471
X1.465 Y0.357 Z-2.382 I-1.471 J0.344
X-0.358 Y1.465 Z-2.469 I-1.465 J-0.358
X-0.982 Y1.145 Z-2.496 I0.358 J-1.465
X-1.145 Y-0.979 Z-2.583 I0.981 J-1.144
X-0.578 Y-1.391 Z-2.609 I1.144 J0.981
X1.388 Y-0.576 Z-2.696 I0.576 J1.39
X1.498 Y0.115 Z-2.723 I-1.39 J0.576
X-0.115 Y1.498 Z-2.81 I-1.498 J-0.115
X-0.78 Y1.284 Z-2.836 I0.115 J-1.498
X-1.284 Y-0.778 Z-2.924 I0.779 J-1.282
X-0.793 Y-1.274 Z-2.95 I1.282 J0.779
X1.271 Y-0.791 Z-3.037 I0.79 J1.273
X1.491 Y-0.129 Z-3.063 I-1.273 J0.79
X0.129 Y1.49 Z-3.151 I-1.491 J0.129
X-0.56 Y1.387 Z-3.177 I-0.129 J-1.491
X-1.387 Y-0.557 Z-3.264 I0.559 J-1.386
X-0.985 Y-1.124 Z-3.29 I1.386 J0.559
X1.121 Y-0.983 Z-3.378 I0.982 J1.124
X1.444 Y-0.368 Z-3.404 I-1.124 J0.982
X0.367 Y1.444 Z-3.491 I-1.445 J0.367
X-0.326 Y1.454 Z-3.517 I-0.367 J-1.445
X-1.453 Y-0.324 Z-3.605 I0.325 J-1.453
X-1.149 Y-0.946 Z-3.631 I1.453 J0.325
X0.944 Y-1.147 Z-3.718 I1.147 J0.946
X1.36 Y-0.595 Z-3.744 I-0.946 J1.147
X0.594 Y1.36 Z-3.832 I-1.36 J0.594
X-0.086 Y1.481 Z-3.858 I-0.594 J-1.36
X-1.481 Y-0.084 Z-3.945 I0.085 J-1.48
X-1.282 Y-0.744 Z-3.971 I1.48 J0.085
X0.742 Y-1.28 Z-4.059 I1.28 J0.744
X1.241 Y-0.805 Z-4.085 I-0.744 J1.28
X0.803 Y1.24 Z-4.172 I-1.241 J0.804
X0.155 Y1.47 Z-4.199 I-0.804 J-1.241
X-1.469 Y0.156 Z-4.286 I-0.155 J-1.469
X-1.38 Y-0.525 Z-4.312 I1.469 J-0.155
X0.523 Y-1.378 Z-4.399 I1.378 J0.525
X1.089 Y-0.991 Z-4.426 I-0.525 J1.378
X0.99 Y1.089 Z-4.513 I-1.09 J0.99
X0.389 Y1.419 Z-4.539 I-0.99 J-1.09
X-1.419 Y0.391 Z-4.627 I-0.39 J-1.418
X-1.441 Y-0.293 Z-4.653 I1.418 J-0.39
X0.291 Y-1.439 Z-4.74 I1.439 J0.293
X0.91 Y-1.15 Z-4.766 I-0.293 J1.439
X1.148 Y0.91 Z-4.854 I-0.911 J1.149
X0.612 Y1.332 Z-4.88 I-1.149 J-0.911
X-1.331 Y0.613 Z-4.967 I-0.612 J-1.331
X-1.464 Y-0.055 Z-4.993 I1.331 J-0.612
X0.054 Y-1.461 Z-5.081 I1.462 J0.056
X0.709 Y-1.278 Z-5.107 I-0.056 J1.462
X1.275 Y0.709 Z-5.194 I-0.71 J1.277
X0.816 Y1.21 Z-5.22 I-1.277 J-0.71
X-1.209 Y0.817 Z-5.308 I-0.816 J-1.209
X-1.448 Y0.182 Z-5.334 I1.209 J-0.816
X-0.183 Y-1.445 Z-5.421 I1.446 J-0.181
X0.49 Y-1.37 Z-5.447 I0.181 J1.446
X1.368 Y0.491 Z-5.535 I-0.492 J1.369
X0.997 Y1.057 Z-5.561 I-1.369 J-0.492
X-1.057 Y0.998 Z-5.648 I-0.997 J-1.056
X-1.393 Y0.412 Z-5.674 I1.056 J-0.997
X-0.413 Y-1.391 Z-5.762 I1.391 J-0.411
X0.261 Y-1.426 Z-5.788 I0.411 J1.391
X1.423 Y0.261 Z-5.875 I-0.262 J1.425
X1.151 Y0.877 Z-5.902 I-1.425 J-0.262
X-0.877 Y1.151 Z-5.989 I-1.151 J-0.877
X-1.303 Y0.63 Z-6.015 I0.877 J-1.151
X-0.631 Y-1.3 Z-6.103 I1.301 J-0.629
X0.026 Y-1.444 Z-6.129 I0.629 J1.301
X1.441 Y0.027 Z-6.216 I-0.028 J1.443
X1.273 Y0.676 Z-6.242 I-1.443 J-0.028
X-0.676 Y1.273 Z-6.33 I-1.273 J-0.676
X-1.179 Y0.829 Z-6.356 I0.676 J-1.273
X-0.83 Y-1.176 Z-6.443 I1.177 J-0.828
X-0.208 Y-1.423 Z-6.469 I0.828 J1.177
X1.42 Y-0.207 Z-6.557 I0.206 J1.422
X1.36 Y0.459 Z-6.583 I-1.422 J0.206
X-0.459 Y1.36 Z-6.67 I-1.36 J-0.459
X-1.024 Y1.005 Z-6.696 I0.459 J-1.36
X-1.005 Y-1.022 Z-6.784 I1.023 J-1.004
X-0.434 Y-1.365 Z-6.81 I1.004 J1.023
X1.362 Y-0.432 Z-6.897 I0.432 J1.364
X1.41 Y0.231 Z-6.923 I-1.364 J0.432
X-0.232 Y1.41 Z-7.011 I-1.41 J-0.232
X-0.845 Y1.153 Z-7.037 I0.232 J-1.41
X-1.153 Y-0.842 Z-7.124 I0.843 J-1.151
X-0.647 Y-1.272 Z-7.15 I1.151 J0.843
X1.269 Y-0.645 Z-7.238 I0.645 J1.271
X1.423 Y-0.001 Z-7.264 I-1.271 J0.645
X-0.002 Y1.425 I-1.425 J0.
X-1.427 Y-0.001 I0. J-1.425
X-0.002 Y-1.426 I1.425 J0.
X1.423 Y-0.001 I0. J1.425
G1 X1.456 Y0.683 F1500
X1.476 Y0.766
X1.492 Y0.915
X1.479 Y1.065
X1.442 Y1.21
X1.385 Y1.349
X1.311 Y1.479
X1.222 Y1.601
X1.121 Y1.711
X1.009 Y1.812
X0.889 Y1.9
X0.76 Y1.978
X0.625 Y2.044
X0.486 Y2.098
X0.342 Y2.141
X0.192 Y2.172
X0.037 Y2.192
X-0.122 Y2.199
X-0.284 Y2.194
X-0.447 Y2.175
X-0.61 Y2.143
X-0.771 Y2.097
X-0.931 Y2.038
X-1.086 Y1.966
X-1.236 Y1.88
X-1.38 Y1.783
X-1.517 Y1.673
X-1.645 Y1.552
X-1.764 Y1.42
X-1.872 Y1.279
X-1.968 Y1.129
X-2.053 Y0.971
X-2.125 Y0.807
X-2.183 Y0.636
X-2.228 Y0.462
X-2.259 Y0.283
X-2.275 Y0.103
X-2.277 Y-0.078
X-2.265 Y-0.26
X-2.237 Y-0.439
X-2.196 Y-0.617
X-2.14 Y-0.79
X-2.07 Y-0.959
X-1.987 Y-1.121
X-1.892 Y-1.277
X-1.784 Y-1.424
X-1.664 Y-1.562
X-1.534 Y-1.69
X-1.394 Y-1.808
X-1.244 Y-1.914
X-1.087 Y-2.007
X-0.923 Y-2.088
X-0.753 Y-2.155
X-0.577 Y-2.208
X-0.398 Y-2.247
X-0.217 Y-2.272
X-0.034 Y-2.282
X0.149 Y-2.277
X0.331 Y-2.258
X0.511 Y-2.224
X0.688 Y-2.176
X0.86 Y-2.113
X1.027 Y-2.037
X1.187 Y-1.948
X1.34 Y-1.846
X1.483 Y-1.733
X1.618 Y-1.608
X1.741 Y-1.473
X1.854 Y-1.328
X1.955 Y-1.174
X2.063 Y-0.976
X2.195 Y-0.682
X2.321 Y-0.324
X2.395 Y-0.046
X2.439 Y0.195
X2.461 Y0.417
X2.465 Y0.632
X2.452 Y0.841
X2.423 Y1.041
X2.38 Y1.232
X2.322 Y1.418
X2.248 Y1.6
X2.16 Y1.777
X2.057 Y1.947
X1.941 Y2.108
X1.81 Y2.261
X1.667 Y2.405
X1.511 Y2.538
X1.342 Y2.66
X1.161 Y2.77
X0.969 Y2.866
X0.766 Y2.948
X0.555 Y3.014
X0.336 Y3.064
X0.111 Y3.096
X-0.118 Y3.11
X-0.351 Y3.106
X-0.585 Y3.083
X-0.818 Y3.041
X-1.05 Y2.98
X-1.277 Y2.9
X-1.499 Y2.801
X-1.714 Y2.684
X-1.92 Y2.549
X-2.115 Y2.397
X-2.299 Y2.229
X-2.469 Y2.046
X-2.625 Y1.849
X-2.765 Y1.639
X-2.889 Y1.418
X-2.994 Y1.187
X-3.081 Y0.948
X-3.148 Y0.702
X-3.196 Y0.45
X-3.223 Y0.195
X-3.23 Y-0.061
X-3.216 Y-0.318
X-3.182 Y-0.573
X-3.127 Y-0.825
X-3.052 Y-1.072
X-2.957 Y-1.313
X-2.844 Y-1.545
X-2.712 Y-1.768
X-2.562 Y-1.979
X-2.396 Y-2.178
X-2.214 Y-2.363
X-2.018 Y-2.533
X-1.809 Y-2.686
X-1.588 Y-2.823
X-1.357 Y-2.941
X-1.117 Y-3.04
X-0.869 Y-3.12
X-0.617 Y-3.179
X-0.36 Y-3.219
X-0.1 Y-3.237
X0.159 Y-3.235
X0.418 Y-3.211
X0.675 Y-3.167
X0.926 Y-3.103
X1.172 Y-3.018
X1.411 Y-2.915
X1.64 Y-2.792
X1.859 Y-2.651
X2.066 Y-2.493
X2.265 Y-2.314
X2.468 Y-2.1
X2.667 Y-1.851
X2.853 Y-1.579
X3.02 Y-1.285
X3.162 Y-0.981
X3.275 Y-0.675
X3.362 Y-0.37
X3.422 Y-0.067
X3.457 Y0.233
X3.467 Y0.529
X3.454 Y0.821
X3.417 Y1.108
X3.359 Y1.388
X3.278 Y1.662
X3.176 Y1.927
X3.054 Y2.182
X2.911 Y2.427
X2.749 Y2.661
X2.568 Y2.881
X2.368 Y3.087
X2.151 Y3.278
X1.918 Y3.453
X1.669 Y3.609
X1.407 Y3.746
X1.132 Y3.862
X0.846 Y3.957
X0.55 Y4.029
X0.248 Y4.078
X-0.06 Y4.103
X-0.372 Y4.102
X-0.684 Y4.077
X-0.996 Y4.026
X-1.304 Y3.95
X-1.607 Y3.848
X-1.903 Y3.722
X-2.19 Y3.572
X-2.465 Y3.398
X-2.726 Y3.202
X-2.972 Y2.984
X-3.2 Y2.747
X-3.41 Y2.491
X-3.599 Y2.218
X-3.766 Y1.929
X-3.91 Y1.627
X-4.029 Y1.314
X-4.124 Y0.992
X-4.192 Y0.662
X-4.233 Y0.327
X-4.248 Y-0.01
X-4.235 Y-0.348
X-4.196 Y-0.685
X-4.129 Y-1.017
X-4.036 Y-1.344
X-3.916 Y-1.662
X-3.772 Y-1.97
X-3.603 Y-2.266
X-3.411 Y-2.547
X-3.196 Y-2.812
X-2.961 Y-3.059
X-2.707 Y-3.286
X-2.436 Y-3.493
X-2.148 Y-3.677
X-1.847 Y-3.837
X-1.533 Y-3.973
X-1.21 Y-4.083
X-0.879 Y-4.167
X-0.542 Y-4.224
X-0.201 Y-4.254
X0.14 Y-4.256
X0.481 Y-4.231
X0.819 Y-4.179
X1.152 Y-4.1
X1.477 Y-3.994
X1.793 Y-3.863
X2.099 Y-3.705
X2.398 Y-3.52
X2.69 Y-3.304
X2.974 Y-3.057
X3.244 Y-2.781
X3.497 Y-2.477
X3.726 Y-2.152
X3.929 Y-1.808
X4.103 Y-1.45
X4.247 Y-1.082
X4.36 Y-0.707
X4.441 Y-0.328
X4.492 Y0.053
X4.511 Y0.433
X4.5 Y0.811
X4.459 Y1.184
X4.389 Y1.551
X4.29 Y1.909
X4.163 Y2.257
X4.008 Y2.593
X3.827 Y2.916
X3.62 Y3.224
X3.389 Y3.515
X3.134 Y3.787
X2.858 Y4.039
X2.56 Y4.269
X2.243 Y4.476
X1.908 Y4.657
X1.558 Y4.812
X1.195 Y4.94
X0.82 Y5.038
X0.436 Y5.106
X0.045 Y5.144
X-0.349 Y5.15
X-0.745 Y5.124
X-1.14 Y5.066
X-1.531 Y4.976
X-1.916 Y4.855
X-2.291 Y4.702
X-2.655 Y4.519
X-3.004 Y4.306
X-3.337 Y4.065
X-3.65 Y3.797
X-3.941 Y3.504
X-4.209 Y3.187
X-4.452 Y2.849
X-4.667 Y2.491
X-4.853 Y2.116
X-5.009 Y1.727
X-5.134 Y1.325
X-5.226 Y0.915
X-5.285 Y0.497
X-5.31 Y0.075
X-5.301 Y-0.348
X-5.258 Y-0.77
X-5.182 Y-1.187
X-5.072 Y-1.597
X-4.929 Y-1.997
X-4.755 Y-2.385
X-4.55 Y-2.758
X-4.315 Y-3.113
X-4.053 Y-3.449
X-3.764 Y-3.763
X-3.451 Y-4.052
X-3.116 Y-4.316
X-2.76 Y-4.552
X-2.387 Y-4.759
X-1.998 Y-4.935
X-1.596 Y-5.079
X-1.184 Y-5.191
X-0.764 Y-5.269
X-0.339 Y-5.313
X0.088 Y-5.323
X0.515 Y-5.299
X0.939 Y-5.241
X1.356 Y-5.148
X1.767 Y-5.022
X2.169 Y-4.862
X2.562 Y-4.668
X2.943 Y-4.441
X3.312 Y-4.178
X3.664 Y-3.881
X3.998 Y-3.551
X4.307 Y-3.192
X4.588 Y-2.806
X4.839 Y-2.398
X5.055 Y-1.971
X5.236 Y-1.529
X5.381 Y-1.076
X5.488 Y-0.616
X5.557 Y-0.15
X5.589 Y0.316
X5.583 Y0.782
X5.54 Y1.243
X5.461 Y1.697
X5.345 Y2.142
X5.195 Y2.576
X5.01 Y2.995
X4.793 Y3.399
X4.544 Y3.783
X4.264 Y4.147
X3.955 Y4.489
X3.619 Y4.805
X3.257 Y5.095
X2.871 Y5.355
X2.464 Y5.585
X2.038 Y5.782
X1.595 Y5.945
X1.138 Y6.073
X0.671 Y6.164
X0.195 Y6.217
X-0.286 Y6.233
X-0.768 Y6.209
X-1.25 Y6.147
X-1.727 Y6.045
X-2.196 Y5.906
X-2.655 Y5.728
X-3.099 Y5.513
X-3.526 Y5.262
X-3.934 Y4.977
X-4.318 Y4.659
X-4.676 Y4.31
X-5.007 Y3.932
X-5.306 Y3.528
X-5.574 Y3.101
X-5.806 Y2.652
X-6.002 Y2.185
X-6.16 Y1.703
X-6.279 Y1.209
X-6.358 Y0.706
X-6.397 Y0.198
X-6.395 Y-0.312
X-6.352 Y-0.822
X-6.268 Y-1.326
X-6.143 Y-1.823
X-5.979 Y-2.308
X-5.777 Y-2.779
X-5.537 Y-3.233
X-5.262 Y-3.666
X-4.952 Y-4.075
X-4.61 Y-4.459
X-4.239 Y-4.814
X-3.84 Y-5.139
X-3.416 Y-5.43
X-2.97 Y-5.687
X-2.505 Y-5.907
X-2.023 Y-6.089
X-1.529 Y-6.231
X-1.024 Y-6.334
X-0.513 Y-6.396
X0.001 Y-6.416
X0.516 Y-6.395
X1.028 Y-6.333
X1.535 Y-6.23
X2.035 Y-6.086
X2.525 Y-5.9
X3.003 Y-5.674
X3.467 Y-5.407
X3.913 Y-5.099
X4.339 Y-4.753
X4.739 Y-4.37
X5.11 Y-3.953
X5.448 Y-3.505
X5.75 Y-3.03
X6.013 Y-2.532
X6.235 Y-2.015
X6.415 Y-1.483
X6.551 Y-0.939
X6.642 Y-0.389
X6.689 Y0.165
X6.691 Y0.72
X6.649 Y1.27
X6.563 Y1.815
X6.434 Y2.349
X6.262 Y2.87
X6.05 Y3.375
X5.798 Y3.862
X5.507 Y4.327
X5.18 Y4.767
X4.818 Y5.181
X4.423 Y5.565
X3.997 Y5.917
X3.543 Y6.235
X3.063 Y6.517
X2.56 Y6.759
X2.037 Y6.962
X1.498 Y7.122
X0.945 Y7.239
X0.383 Y7.312
X-0.186 Y7.34
X-0.758 Y7.321
X-1.328 Y7.257
X-1.893 Y7.146
X-2.45 Y6.99
X-2.994 Y6.789
X-3.523 Y6.545
X-4.031 Y6.257
X-4.516 Y5.929
X-4.975 Y5.562
X-5.404 Y5.159
X-5.8 Y4.721
X-6.16 Y4.251
X-6.483 Y3.753
X-6.764 Y3.23
X-7.004 Y2.685
X-7.199 Y2.121
X-7.349 Y1.543
X-7.452 Y0.954
X-7.507 Y0.358
X-7.514 Y-0.242
X-7.473 Y-0.841
X-7.384 Y-1.435
X-7.248 Y-2.02
X-7.065 Y-2.594
X-6.836 Y-3.151
X-6.563 Y-3.688
X-6.248 Y-4.202
X-5.892 Y-4.689
X-5.499 Y-5.146
X-5.069 Y-5.57
X-4.607 Y-5.959
X-4.115 Y-6.309
X-3.597 Y-6.619
X-3.055 Y-6.886
X-2.493 Y-7.109
X-1.915 Y-7.286
X-1.325 Y-7.416
X-0.726 Y-7.499
X-0.122 Y-7.533
X0.484 Y-7.518
X1.088 Y-7.455
X1.686 Y-7.343
X2.277 Y-7.183
X2.857 Y-6.974
X3.423 Y-6.718
X3.971 Y-6.414
X4.497 Y-6.065
X4.997 Y-5.671
X5.467 Y-5.236
X5.904 Y-4.761
X6.303 Y-4.25
X6.661 Y-3.707
X6.974 Y-3.136
X7.241 Y-2.542
X7.459 Y-1.929
X7.627 Y-1.301
X7.744 Y-0.663
X7.809 Y-0.02
X7.822 Y0.625
X7.783 Y1.267
X7.694 Y1.903
X7.553 Y2.528
X7.364 Y3.139
X7.126 Y3.733
X6.841 Y4.305
X6.511 Y4.853
X6.138 Y5.373
X5.723 Y5.862
X5.27 Y6.317
X4.781 Y6.736
X4.259 Y7.114
X3.706 Y7.45
X3.127 Y7.742
X2.524 Y7.987
X1.901 Y8.184
X1.263 Y8.33
X0.612 Y8.425
X-0.046 Y8.467
X-0.708 Y8.457
X-1.369 Y8.393
X-2.025 Y8.276
X-2.671 Y8.107
X-3.304 Y7.885
X-3.918 Y7.612
X-4.511 Y7.29
X-5.077 Y6.921
X-5.613 Y6.506
X-6.116 Y6.049
X-6.581 Y5.551
X-7.005 Y5.017
X-7.386 Y4.449
X-7.721 Y3.852
X-8.006 Y3.23
X-8.241 Y2.587
X-8.424 Y1.927
X-8.553 Y1.255
X-8.629 Y0.575
X-8.65 Y-0.109
X-8.616 Y-0.793
X-8.529 Y-1.472
X-8.387 Y-2.142
X-8.193 Y-2.798
X-7.948 Y-3.437
X-7.652 Y-4.054
X-7.309 Y-4.646
X-6.92 Y-5.21
X-6.487 Y-5.74
X-6.014 Y-6.235
X-5.503 Y-6.69
X-4.958 Y-7.104
X-4.382 Y-7.474
X-3.779 Y-7.796
X-3.151 Y-8.07
X-2.504 Y-8.294
X-1.842 Y-8.466
X-1.168 Y-8.585
X-0.487 Y-8.65
X0.198 Y-8.662
X0.881 Y-8.619
X1.559 Y-8.523
X2.227 Y-8.374
X2.881 Y-8.174
X3.518 Y-7.923
X4.134 Y-7.624
X4.725 Y-7.279
X5.288 Y-6.89
X5.82 Y-6.459
X6.319 Y-5.99
X6.781 Y-5.486
X7.204 Y-4.947
X7.584 Y-4.378
X7.921 Y-3.783
X8.213 Y-3.164
X8.459 Y-2.525
X8.656 Y-1.869
X8.805 Y-1.201
X8.904 Y-0.524
X8.952 Y0.159
X8.95 Y0.843
X8.897 Y1.526
X8.793 Y2.202
X8.639 Y2.869
X8.435 Y3.523
X8.182 Y4.159
X7.881 Y4.774
X7.535 Y5.364
X7.145 Y5.926
X6.713 Y6.458
X6.244 Y6.956
X5.738 Y7.417
X5.2 Y7.84
X4.632 Y8.221
X4.037 Y8.56
X3.418 Y8.853
X2.78 Y9.101
X2.125 Y9.3
X1.458 Y9.452
X0.781 Y9.552
X0.098 Y9.602
X-0.586 Y9.601
X-1.269 Y9.55
X-1.946 Y9.45
X-2.614 Y9.302
X-3.27 Y9.106
X-3.91 Y8.864
X-4.532 Y8.577
X-5.131 Y8.247
X-5.705 Y7.873
X-6.249 Y7.459
X-6.762 Y7.006
X-7.242 Y6.518
X-7.686 Y5.997
X-8.093 Y5.446
X-8.46 Y4.869
X-8.786 Y4.267
X-9.069 Y3.644
X-9.306 Y3.001
X-9.495 Y2.344
X-9.637 Y1.674
X-9.733 Y0.996
X-9.781 Y0.313
Y-0.371
X-9.734 Y-1.054
X-9.641 Y-1.732
X-9.499 Y-2.401
X-9.308 Y-3.059
X-9.072 Y-3.701
X-8.791 Y-4.325
X-8.468 Y-4.929
X-8.103 Y-5.508
X-7.7 Y-6.061
X-7.26 Y-6.585
X-6.784 Y-7.077
X-6.274 Y-7.534
X-5.733 Y-7.953
X-5.163 Y-8.332
X-4.569 Y-8.671
X-3.952 Y-8.969
X-3.317 Y-9.223
X-2.665 Y-9.433
X-2.001 Y-9.598
X-1.327 Y-9.715
X-0.645 Y-9.784
X0.039 Y-9.804
X0.723 Y-9.776
X1.403 Y-9.701
X2.077 Y-9.58
X2.74 Y-9.413
X3.391 Y-9.201
X4.027 Y-8.946
X4.642 Y-8.648
X5.236 Y-8.306
X5.805 Y-7.926
X6.347 Y-7.508
X6.86 Y-7.055
X7.342 Y-6.57
X7.792 Y-6.053
X8.206 Y-5.508
X8.583 Y-4.937
X8.92 Y-4.342
X9.216 Y-3.724
X9.471 Y-3.089
X9.683 Y-2.438
X9.852 Y-1.775
X9.978 Y-1.102
X10.06 Y-0.423
X10.097 Y0.261
X10.09 Y0.945
X10.037 Y1.628
X9.937 Y2.305
X9.792 Y2.974
X9.602 Y3.631
X9.369 Y4.275
X9.094 Y4.901
X8.777 Y5.508
X8.422 Y6.093
X8.028 Y6.653
X7.597 Y7.185
X7.131 Y7.686
X6.632 Y8.155
X6.103 Y8.589
X5.547 Y8.988
X4.966 Y9.35
X4.363 Y9.674
X3.74 Y9.957
X3.1 Y10.2
X2.445 Y10.4
X1.779 Y10.555
X1.103 Y10.664
X0.422 Y10.729
X-0.263 Y10.749
X-0.947 Y10.725
X-1.628 Y10.657
X-2.303 Y10.546
X-2.97 Y10.392
X-3.626 Y10.196
X-4.267 Y9.957
X-4.892 Y9.677
X-5.497 Y9.357
X-6.08 Y8.999
X-6.639 Y8.604
X-7.172 Y8.174
X-7.677 Y7.712
X-8.152 Y7.219
X-8.595 Y6.697
X-9.003 Y6.148
X-9.375 Y5.573
X-9.71 Y4.976
X-10.006 Y4.359
X-10.263 Y3.725
X-10.479 Y3.075
X-10.654 Y2.414
X-10.787 Y1.742
X-10.878 Y1.064
X-10.927 Y0.381
X-10.931 Y-0.303
X-10.892 Y-0.987
X-10.811 Y-1.666
X-10.686 Y-2.339
X-10.52 Y-3.003
X-10.312 Y-3.655
X-10.064 Y-4.293
X-9.777 Y-4.915
X-9.453 Y-5.517
X-9.09 Y-6.098
X-8.691 Y-6.654
X-8.259 Y-7.185
X-7.794 Y-7.687
X-7.298 Y-8.159
X-6.774 Y-8.599
X-6.223 Y-9.006
X-5.648 Y-9.377
X-5.052 Y-9.713
X-4.435 Y-10.01
X-3.801 Y-10.268
X-3.152 Y-10.485
X-2.491 Y-10.662
X-1.82 Y-10.796
X-1.142 Y-10.888
X-0.459 Y-10.938
X0.226 Y-10.945
X0.909 Y-10.91
X1.589 Y-10.834
X2.263 Y-10.714
X2.928 Y-10.552
X3.582 Y-10.35
X4.222 Y-10.108
X4.846 Y-9.827
X5.452 Y-9.508
X6.037 Y-9.153
X6.6 Y-8.764
X7.139 Y-8.342
X7.652 Y-7.888
X8.136 Y-7.404
X8.589 Y-6.892
X9.011 Y-6.353
X9.4 Y-5.79
X9.755 Y-5.204
X10.073 Y-4.598
X10.356 Y-3.975
X10.601 Y-3.336
X10.808 Y-2.683
X10.976 Y-2.02
X11.104 Y-1.347
X11.191 Y-0.668
X11.239 Y0.014
X11.245 Y0.699
X11.211 Y1.382
X11.136 Y2.063
X11.02 Y2.737
X10.865 Y3.404
X10.67 Y4.06
X10.436 Y4.703
X10.162 Y5.331
X9.851 Y5.94
X9.505 Y6.531
X9.123 Y7.099
X8.708 Y7.643
X8.26 Y8.161
X7.783 Y8.651
X7.277 Y9.113
X6.746 Y9.544
X6.189 Y9.942
X5.61 Y10.306
X5.009 Y10.635
X4.391 Y10.928
X3.756 Y11.184
X3.107 Y11.402
X2.446 Y11.581
X1.776 Y11.721
X1.099 Y11.82
X0.417 Y11.88
X-0.267 Y11.899
X-0.951 Y11.877
X-1.633 Y11.815
X-2.31 Y11.714
X-2.98 Y11.574
X-3.64 Y11.395
X-4.289 Y11.178
X-4.925 Y10.924
X-5.545 Y10.634
X-6.147 Y10.309
X-6.73 Y9.949
X-7.29 Y9.556
X-7.825 Y9.13
X-8.336 Y8.674
X-8.82 Y8.19
X-9.275 Y7.679
X-9.7 Y7.142
X-10.094 Y6.583
X-10.456 Y6.002
X-10.784 Y5.401
X-11.077 Y4.782
X-11.334 Y4.148
X-11.554 Y3.5
X-11.735 Y2.84
X-11.879 Y2.171
X-11.985 Y1.494
X-12.053 Y0.813
X-12.081 Y0.129
X-12.071 Y-0.555
X-12.023 Y-1.238
X-11.936 Y-1.917
X-11.811 Y-2.59
X-11.646 Y-3.254
X-11.443 Y-3.908
X-11.204 Y-4.549
X-10.929 Y-5.176
X-10.619 Y-5.786
X-10.275 Y-6.378
X-9.899 Y-6.949
X-9.49 Y-7.499
X-9.052 Y-8.024
X-8.585 Y-8.525
X-8.09 Y-8.997
X-7.568 Y-9.44
X-7.021 Y-9.852
X-6.452 Y-10.233
X-5.863 Y-10.581
X-5.255 Y-10.896
X-4.631 Y-11.176
X-3.991 Y-11.42
X-3.339 Y-11.628
X-2.677 Y-11.8
X-2.005 Y-11.933
X-1.327 Y-12.027
X-0.645 Y-12.082
X0.039 Y-12.098
X0.723 Y-12.077
X1.405 Y-12.016
X2.082 Y-11.918
X2.753 Y-11.782
X3.415 Y-11.609
X4.067 Y-11.4
X4.706 Y-11.154
X5.33 Y-10.874
X5.938 Y-10.558
X6.526 Y-10.209
X7.095 Y-9.828
X7.642 Y-9.417
X8.166 Y-8.976
X8.666 Y-8.508
X9.139 Y-8.013
X9.584 Y-7.494
X10.001 Y-6.951
X10.388 Y-6.386
X10.743 Y-5.801
X11.065 Y-5.197
X11.353 Y-4.576
X11.608 Y-3.941
X11.828 Y-3.293
X12.013 Y-2.634
X12.163 Y-1.966
X12.276 Y-1.291
X12.353 Y-0.611
X12.394 Y0.072
X12.398 Y0.757
X12.364 Y1.44
X12.293 Y2.121
X12.183 Y2.797
X12.038 Y3.466
X11.857 Y4.125
X11.639 Y4.775
X11.387 Y5.411
X11.101 Y6.032
X10.781 Y6.638
X10.429 Y7.225
X10.045 Y7.792
X9.631 Y8.336
X9.187 Y8.857
X8.715 Y9.353
X8.216 Y9.822
X7.694 Y10.264
X7.148 Y10.677
X6.581 Y11.061
X5.994 Y11.413
X5.389 Y11.733
X4.768 Y12.021
X4.133 Y12.275
X3.484 Y12.494
X2.825 Y12.677
X2.156 Y12.823
X1.481 Y12.933
X0.8 Y13.007
X0.117 Y13.045
X-0.568 Y13.046
X-1.251 Y13.011
X-1.932 Y12.939
X-2.608 Y12.832
X-3.278 Y12.69
X-3.939 Y12.512
X-4.589 Y12.299
X-5.227 Y12.051
X-5.851 Y11.769
X-6.459 Y11.456
X-7.05 Y11.111
X-7.622 Y10.735
X-8.174 Y10.33
X-8.703 Y9.896
X-9.21 Y9.435
X-9.691 Y8.949
X-10.147 Y8.438
X-10.574 Y7.903
X-10.973 Y7.347
X-11.342 Y6.771
X-11.681 Y6.176
X-11.988 Y5.564
X-12.263 Y4.937
X-12.505 Y4.297
X-12.713 Y3.645
X-12.887 Y2.983
X-13.027 Y2.313
X-13.132 Y1.637
X-13.202 Y0.956
X-13.235 Y0.272
X-13.232 Y-0.412
X-13.195 Y-1.096
X-13.122 Y-1.776
X-13.014 Y-2.452
X-12.871 Y-3.121
X-12.693 Y-3.782
X-12.482 Y-4.433
X-12.237 Y-5.073
X-11.96 Y-5.699
X-11.651 Y-6.309
X-11.31 Y-6.903
X-10.938 Y-7.478
X-10.538 Y-8.032
X-10.109 Y-8.566
X-9.654 Y-9.077
X-9.172 Y-9.564
X-8.666 Y-10.025
X-8.137 Y-10.459
X-7.587 Y-10.865
X-7.016 Y-11.243
X-6.426 Y-11.591
X-5.82 Y-11.908
X-5.197 Y-12.192
X-4.56 Y-12.443
X-3.912 Y-12.662
X-3.253 Y-12.847
X-2.585 Y-12.998
X-1.911 Y-13.114
X-1.231 Y-13.195
X-0.548 Y-13.241
X0.136 Y-13.253
X0.82 Y-13.229
X1.502 Y-13.17
X2.18 Y-13.075
X2.852 Y-12.945
X3.517 Y-12.781
X4.172 Y-12.583
X4.817 Y-12.353
X5.449 Y-12.09
X6.066 Y-11.796
X6.669 Y-11.47
X7.254 Y-11.115
X7.82 Y-10.731
X8.367 Y-10.319
X8.892 Y-9.88
X9.394 Y-9.415
X9.872 Y-8.925
X10.325 Y-8.412
X10.752 Y-7.877
X11.152 Y-7.322
X11.524 Y-6.747
X11.867 Y-6.155
X12.18 Y-5.546
X12.462 Y-4.922
X12.714 Y-4.286
X12.934 Y-3.638
X13.121 Y-2.979
X13.274 Y-2.312
X13.395 Y-1.639
X13.482 Y-0.96
X13.536 Y-0.277
X13.556 Y0.407
X13.542 Y1.091
X13.494 Y1.774
X13.412 Y2.454
X13.296 Y3.128
X13.148 Y3.796
X12.966 Y4.456
X12.751 Y5.106
X12.503 Y5.744
X12.223 Y6.369
X11.913 Y6.979
X11.573 Y7.573
X11.203 Y8.149
X10.806 Y8.706
X10.38 Y9.242
X9.929 Y9.757
X9.453 Y10.248
X8.953 Y10.716
X8.43 Y11.158
X7.886 Y11.573
X7.322 Y11.961
X6.739 Y12.319
X6.139 Y12.649
X5.524 Y12.95
X4.895 Y13.22
X4.254 Y13.458
X3.601 Y13.664
X2.939 Y13.838
X2.269 Y13.978
X1.593 Y14.086
X0.913 Y14.161
X0.229 Y14.201
X-0.455 Y14.207
X-1.139 Y14.179
X-1.821 Y14.118
X-2.499 Y14.025
X-3.172 Y13.899
X-3.837 Y13.74
X-4.495 Y13.55
X-5.142 Y13.327
X-5.778 Y13.074
X-6.401 Y12.79
X-7.009 Y12.476
X-7.601 Y12.133
X-8.176 Y11.761
X-8.731 Y11.361
X-9.267 Y10.935
X-9.782 Y10.484
X-10.275 Y10.009
X-10.744 Y9.511
X-11.189 Y8.991
X-11.609 Y8.45
X-12.002 Y7.89
X-12.368 Y7.312
X-12.706 Y6.717
X-13.015 Y6.106
X-13.293 Y5.48
X-13.541 Y4.842
X-13.758 Y4.193
X-13.943 Y3.534
X-14.098 Y2.867
X-14.221 Y2.194
X-14.311 Y1.516
X-14.369 Y0.834
X-14.394 Y0.15
X-14.387 Y-0.535
X-14.348 Y-1.218
X-14.276 Y-1.899
X-14.17 Y-2.575
X-14.032 Y-3.245
X-13.862 Y-3.909
X-13.661 Y-4.563
X-13.43 Y-5.207
X-13.168 Y-5.839
X-12.876 Y-6.459
X-12.556 Y-7.063
X-12.207 Y-7.652
X-11.83 Y-8.224
X-11.427 Y-8.777
X-10.999 Y-9.311
X-10.544 Y-9.823
X-10.066 Y-10.312
X-9.565 Y-10.778
X-9.042 Y-11.22
X-8.499 Y-11.636
X-7.937 Y-12.027
X-7.357 Y-12.39
X-6.76 Y-12.726
X-6.148 Y-13.033
X-5.523 Y-13.31
X-4.884 Y-13.558
X-4.236 Y-13.776
X-3.577 Y-13.962
X-2.91 Y-14.116
X-2.236 Y-14.237
X-1.558 Y-14.327
X-0.876 Y-14.384
X-0.192 Y-14.409
X0.493 Y-14.402
X1.176 Y-14.363
X1.857 Y-14.292
X2.533 Y-14.188
X3.204 Y-14.053
X3.868 Y-13.886
X4.524 Y-13.689
X5.169 Y-13.461
X5.803 Y-13.202
X6.423 Y-12.914
X7.03 Y-12.597
X7.621 Y-12.252
X8.196 Y-11.88
X8.753 Y-11.483
X9.292 Y-11.06
X9.81 Y-10.613
X10.307 Y-10.142
X10.781 Y-9.649
X11.233 Y-9.135
X11.661 Y-8.601
X12.063 Y-8.047
X12.439 Y-7.475
X12.788 Y-6.886
X13.109 Y-6.282
X13.403 Y-5.664
X13.669 Y-5.033
X13.906 Y-4.391
X14.113 Y-3.738
X14.29 Y-3.077
X14.437 Y-2.409
X14.553 Y-1.734
X14.639 Y-1.055
X14.694 Y-0.373
X14.717 Y0.311
X14.707 Y0.996
X14.667 Y1.679
X14.595 Y2.36
X14.492 Y3.036
X14.359 Y3.708
X14.195 Y4.372
X14. Y5.029
X13.775 Y5.675
X13.521 Y6.311
X13.238 Y6.934
X12.927 Y7.543
X12.588 Y8.138
X12.221 Y8.716
X11.828 Y9.276
X11.409 Y9.817
X10.966 Y10.339
X10.499 Y10.84
X10.01 Y11.319
X9.5 Y11.775
X8.97 Y12.208
X8.42 Y12.616
X7.852 Y12.998
X7.268 Y13.354
X6.668 Y13.684
X6.053 Y13.985
X5.426 Y14.258
X4.786 Y14.501
X4.136 Y14.715
X3.476 Y14.899
X2.81 Y15.053
X2.136 Y15.177
X1.458 Y15.27
X0.777 Y15.332
X0.093 Y15.363
X-0.592 Y15.364
X-1.275 Y15.333
X-1.957 Y15.272
X-2.635 Y15.18
X-3.309 Y15.057
X-3.976 Y14.904
X-4.635 Y14.721
X-5.286 Y14.508
X-5.926 Y14.267
X-6.556 Y13.998
X-7.172 Y13.701
X-7.775 Y13.376
X-8.362 Y13.025
X-8.933 Y12.647
X-9.487 Y12.245
X-10.022 Y11.818
X-10.538 Y11.369
X-11.033 Y10.896
X-11.506 Y10.401
X-11.957 Y9.886
X-12.384 Y9.351
X-12.787 Y8.798
X-13.166 Y8.228
X-13.519 Y7.641
X-13.846 Y7.04
X-14.145 Y6.425
X-14.417 Y5.796
X-14.661 Y5.157
X-14.876 Y4.507
X-15.063 Y3.849
X-15.22 Y3.182
X-15.347 Y2.51
X-15.444 Y1.832
X-15.511 Y1.151
X-15.548 Y0.468
X-15.555 Y-0.217
X-15.532 Y-0.901
X-15.479 Y-1.583
X-15.396 Y-2.263
X-15.282 Y-2.938
X-15.14 Y-3.607
X-14.967 Y-4.27
X-14.767 Y-4.924
X-14.537 Y-5.569
X-14.278 Y-6.202
X-13.992 Y-6.824
X-13.678 Y-7.433
X-13.339 Y-8.027
X-12.973 Y-8.605
X-12.583 Y-9.168
X-12.168 Y-9.712
X-11.73 Y-10.238
X-11.269 Y-10.744
X-10.787 Y-11.23
X-10.283 Y-11.693
X-9.76 Y-12.134
X-9.217 Y-12.552
X-8.657 Y-12.945
X-8.079 Y-13.312
X-7.486 Y-13.654
X-6.879 Y-13.969
X-6.258 Y-14.258
X-5.626 Y-14.519
X-4.982 Y-14.753
X-4.329 Y-14.958
X-3.668 Y-15.134
X-2.999 Y-15.281
X-2.325 Y-15.398
X-1.646 Y-15.486
X-0.964 Y-15.544
X-0.28 Y-15.571
X0.404 Y-15.568
X1.088 Y-15.535
X1.769 Y-15.472
X2.448 Y-15.379
X3.121 Y-15.258
X3.789 Y-15.107
X4.449 Y-14.927
X5.101 Y-14.719
X5.744 Y-14.483
X6.375 Y-14.219
X6.994 Y-13.927
X7.601 Y-13.61
X8.193 Y-13.267
X8.769 Y-12.898
X9.329 Y-12.504
X9.872 Y-12.087
X10.396 Y-11.646
X10.901 Y-11.184
X11.386 Y-10.701
X11.85 Y-10.198
X12.292 Y-9.676
X12.712 Y-9.135
X13.108 Y-8.577
X13.479 Y-8.002
X13.826 Y-7.412
X14.148 Y-6.808
X14.443 Y-6.19
X14.712 Y-5.561
X14.953 Y-4.92
X15.168 Y-4.27
X15.354 Y-3.611
X15.512 Y-2.946
X15.643 Y-2.274
X15.745 Y-1.597
X15.819 Y-0.916
X15.863 Y-0.233
X15.879 Y0.451
X15.865 Y1.135
X15.822 Y1.818
X15.751 Y2.499
X15.65 Y3.176
X15.52 Y3.848
X15.361 Y4.514
X15.173 Y5.172
X14.958 Y5.822
X14.716 Y6.462
X14.446 Y7.091
X14.151 Y7.708
X13.829 Y8.312
X13.481 Y8.902
X13.109 Y9.476
X12.712 Y10.034
X12.292 Y10.575
X11.849 Y11.097
X11.384 Y11.599
X10.898 Y12.081
X10.392 Y12.542
X9.867 Y12.981
X9.324 Y13.397
X8.763 Y13.79
X8.187 Y14.159
X7.595 Y14.504
X6.99 Y14.823
X6.372 Y15.116
X5.741 Y15.383
X5.1 Y15.623
X4.45 Y15.836
X3.791 Y16.021
X3.124 Y16.177
X2.452 Y16.305
X1.775 Y16.404
X1.094 Y16.474
X0.411 Y16.516
X-0.274 Y16.529
X-0.958 Y16.514
X-1.641 Y16.471
X-2.322 Y16.398
X-2.999 Y16.298
X-3.671 Y16.169
X-4.337 Y16.012
X-4.996 Y15.828
X-5.647 Y15.616
X-6.289 Y15.377
X-6.919 Y15.111
X-7.538 Y14.819
X-8.145 Y14.502
X-8.737 Y14.159
X-9.315 Y13.793
X-9.878 Y13.402
X-10.424 Y12.989
X-10.952 Y12.554
X-11.462 Y12.097
X-11.952 Y11.62
X-12.422 Y11.123
X-12.871 Y10.606
X-13.299 Y10.072
X-13.704 Y9.52
X-14.086 Y8.952
X-14.443 Y8.368
X-14.777 Y7.77
X-15.085 Y7.159
X-15.368 Y6.536
X-15.625 Y5.902
X-15.856 Y5.258
X-16.061 Y4.604
X-16.238 Y3.943
X-16.388 Y3.275
X-16.51 Y2.602
X-16.605 Y1.924
X-16.672 Y1.243
X-16.711 Y0.56
X-16.721 Y-0.125
X-16.703 Y-0.809
X-16.657 Y-1.492
X-16.582 Y-2.172
X-16.48 Y-2.849
X-16.351 Y-3.521
X-16.194 Y-4.188
X-16.01 Y-4.847
X-15.799 Y-5.498
X-15.562 Y-6.14
X-15.299 Y-6.772
X-15.01 Y-7.392
X-14.695 Y-8.
X-14.357 Y-8.595
X-13.993 Y-9.175
X-13.607 Y-9.74
X-13.197 Y-10.288
X-12.765 Y-10.819
X-12.312 Y-11.332
X-11.838 Y-11.826
X-11.345 Y-12.301
X-10.833 Y-12.755
X-10.302 Y-13.188
X-9.755 Y-13.598
X-9.191 Y-13.986
X-8.611 Y-14.35
X-8.018 Y-14.691
X-7.41 Y-15.007
X-6.791 Y-15.297
X-6.159 Y-15.562
X-5.518 Y-15.801
X-4.867 Y-16.013
X-4.208 Y-16.198
X-3.542 Y-16.356
X-2.871 Y-16.487
X-2.194 Y-16.591
X-1.514 Y-16.667
X-0.831 Y-16.716
X-0.147 Y-16.736
X0.538 Y-16.728
X1.221 Y-16.693
X1.903 Y-16.63
X2.581 Y-16.539
X3.255 Y-16.42
X3.924 Y-16.273
X4.586 Y-16.1
X5.24 Y-15.9
X5.886 Y-15.674
X6.523 Y-15.422
X7.148 Y-15.144
X7.763 Y-14.842
X8.364 Y-14.516
X8.952 Y-14.165
X9.525 Y-13.791
X10.083 Y-13.395
X10.625 Y-12.976
X11.15 Y-12.537
X11.656 Y-12.076
X12.143 Y-11.596
X12.611 Y-11.096
X13.059 Y-10.578
X13.485 Y-10.043
X13.89 Y-9.491
X14.273 Y-8.924
X14.633 Y-8.342
X14.97 Y-7.746
X15.283 Y-7.137
X15.572 Y-6.517
X15.836 Y-5.885
X16.075 Y-5.244
X16.288 Y-4.593
X16.475 Y-3.935
X16.636 Y-3.27
X16.77 Y-2.598
X16.878 Y-1.922
X16.959 Y-1.243
X17.013 Y-0.56
X17.039 Y0.124
Y0.808
X17.012 Y1.492
X16.958 Y2.174
X16.877 Y2.854
X16.769 Y3.53
X16.634 Y4.201
X16.473 Y4.866
X16.285 Y5.524
X16.071 Y6.174
X15.831 Y6.815
X15.565 Y7.446
X15.275 Y8.066
X14.96 Y8.674
X14.621 Y9.268
X14.259 Y9.849
X13.874 Y10.415
X13.467 Y10.965
X13.038 Y11.499
X12.589 Y12.015
X12.119 Y12.513
X11.63 Y12.992
X11.122 Y13.451
X10.597 Y13.89
X10.055 Y14.307
X9.496 Y14.703
X8.922 Y15.076
X8.334 Y15.426
X7.732 Y15.752
X7.118 Y16.055
X6.493 Y16.333
X5.857 Y16.586
X5.212 Y16.815
X4.558 Y17.017
X3.897 Y17.194
X3.229 Y17.344
X2.556 Y17.468
X1.878 Y17.566
X1.198 Y17.636
X0.515 Y17.68
X-0.17 Y17.696
X-0.854 Y17.686
X-1.538 Y17.648
X-2.219 Y17.584
X-2.898 Y17.494
X-3.572 Y17.377
X-4.241 Y17.234
X-4.905 Y17.066
X-5.561 Y16.872
X-6.209 Y16.652
X-6.849 Y16.407
X-7.478 Y16.138
X-8.096 Y15.844
X-8.702 Y15.527
X-9.296 Y15.186
X-9.875 Y14.822
X-10.44 Y14.435
X-10.99 Y14.027
X-11.523 Y13.598
X-12.04 Y13.149
X-12.538 Y12.68
X-13.019 Y12.192
X-13.48 Y11.687
X-13.921 Y11.164
X-14.342 Y10.624
X-14.742 Y10.068
X-15.12 Y9.498
X-15.476 Y8.913
X-15.809 Y8.315
X-16.118 Y7.704
X-16.404 Y7.082
X-16.665 Y6.45
X-16.901 Y5.807
X-17.113 Y5.156
X-17.3 Y4.498
X-17.461 Y3.833
X-17.596 Y3.162
X-17.706 Y2.486
X-17.79 Y1.807
X-17.848 Y1.125
X-17.88 Y0.441
X-17.885 Y-0.243
X-17.864 Y-0.927
X-17.817 Y-1.61
X-17.744 Y-2.291
X-17.644 Y-2.968
X-17.518 Y-3.641
X-17.367 Y-4.308
X-17.19 Y-4.969
X-16.988 Y-5.623
X-16.761 Y-6.269
X-16.509 Y-6.906
X-16.233 Y-7.532
X-15.934 Y-8.148
X-15.612 Y-8.751
X-15.266 Y-9.342
X-14.899 Y-9.92
X-14.509 Y-10.482
X-14.098 Y-11.03
X-13.667 Y-11.561
X-13.215 Y-12.076
X-12.744 Y-12.572
X-12.254 Y-13.05
X-11.746 Y-13.508
X-11.221 Y-13.947
X-10.679 Y-14.366
X-10.122 Y-14.764
X-9.55 Y-15.14
X-8.965 Y-15.494
X-8.366 Y-15.826
X-7.755 Y-16.135
X-7.133 Y-16.42
X-6.5 Y-16.681
X-5.858 Y-16.917
X-5.207 Y-17.129
X-4.548 Y-17.316
X-3.883 Y-17.477
X-3.212 Y-17.612
X-2.537 Y-17.722
X-1.857 Y-17.806
X-1.175 Y-17.863
X-0.491 Y-17.895
X0.193 Y-17.901
X0.877 Y-17.881
X1.56 Y-17.835
X2.241 Y-17.763
X2.918 Y-17.665
X3.591 Y-17.541
X4.259 Y-17.392
X4.921 Y-17.218
X5.576 Y-17.019
X6.223 Y-16.795
X6.861 Y-16.546
X7.488 Y-16.273
X8.105 Y-15.977
X8.711 Y-15.658
X9.304 Y-15.317
X9.884 Y-14.953
X10.45 Y-14.568
X11.001 Y-14.163
X11.537 Y-13.737
X12.057 Y-13.291
X12.559 Y-12.826
X13.044 Y-12.343
X13.51 Y-11.842
X13.958 Y-11.324
X14.385 Y-10.79
X14.792 Y-10.239
X15.179 Y-9.674
X15.543 Y-9.095
X15.887 Y-8.503
X16.208 Y-7.898
X16.506 Y-7.282
X16.782 Y-6.656
X17.034 Y-6.02
X17.262 Y-5.374
X17.467 Y-4.721
X17.647 Y-4.061
X17.803 Y-3.394
X17.934 Y-2.723
X18.039 Y-2.046
X18.12 Y-1.367
X18.176 Y-0.684
X18.206 Y-0.001
X18.21 Y0.684
X18.188 Y1.368
X18.142 Y2.051
X18.07 Y2.732
X17.973 Y3.409
X17.851 Y4.083
X17.704 Y4.751
X17.532 Y5.414
X17.336 Y6.069
X17.115 Y6.717
X16.87 Y7.356
X16.602 Y7.986
X16.311 Y8.605
X15.996 Y9.213
X15.659 Y9.809
X15.299 Y10.391
X14.918 Y10.96
X14.516 Y11.514
X14.094 Y12.053
X13.652 Y12.575
X13.191 Y13.081
X12.711 Y13.57
X12.214 Y14.04
X11.7 Y14.492
X11.169 Y14.924
X10.623 Y15.336
X10.062 Y15.728
X9.487 Y16.099
X8.898 Y16.449
X8.297 Y16.776
X7.684 Y17.08
X7.06 Y17.362
X6.426 Y17.62
X5.783 Y17.854
X5.132 Y18.065
X4.473 Y18.251
X3.808 Y18.413
X3.138 Y18.55
X2.462 Y18.663
X1.784 Y18.751
X1.102 Y18.814
X0.419 Y18.851
X-0.266 Y18.863
X-0.95 Y18.851
X-1.634 Y18.813
X-2.315 Y18.75
X-2.994 Y18.662
X-3.669 Y18.549
X-4.339 Y18.411
X-5.004 Y18.249
X-5.663 Y18.062
X-6.314 Y17.852
X-6.958 Y17.619
X-7.592 Y17.362
X-8.217 Y17.082
X-8.831 Y16.78
X-9.434 Y16.455
X-10.024 Y16.109
X-10.601 Y15.741
X-11.165 Y15.353
X-11.714 Y14.944
X-12.248 Y14.516
X-12.766 Y14.068
X-13.267 Y13.602
X-13.751 Y13.118
X-14.217 Y12.616
X-14.664 Y12.099
X-15.093 Y11.565
X-15.502 Y11.016
X-15.891 Y10.453
X-16.259 Y9.876
X-16.607 Y9.286
X-16.933 Y8.685
X-17.236 Y8.071
X-17.518 Y7.447
X-17.776 Y6.814
X-18.012 Y6.171
X-18.225 Y5.52
X-18.413 Y4.862
X-18.577 Y4.198
X-18.717 Y3.528
X-18.833 Y2.853
X-18.925 Y2.175
X-18.992 Y1.494
X-19.035 Y0.811
X-19.053 Y0.126
X-19.047 Y-0.558
X-19.016 Y-1.242
X-18.96 Y-1.924
X-18.88 Y-2.604
X-18.775 Y-3.28
X-18.647 Y-3.952
X-18.494 Y-4.62
X-18.317 Y-5.281
X-18.116 Y-5.935
X-17.892 Y-6.582
X-17.644 Y-7.22
X-17.374 Y-7.849
X-17.081 Y-8.467
X-16.766 Y-9.075
X-16.43 Y-9.671
X-16.073 Y-10.255
X-15.695 Y-10.826
X-15.297 Y-11.383
X-14.879 Y-11.925
X-14.442 Y-12.451
X-13.986 Y-12.962
X-13.512 Y-13.456
X-13.021 Y-13.932
X-12.512 Y-14.391
X-11.988 Y-14.831
X-11.448 Y-15.252
X-10.893 Y-15.652
X-10.324 Y-16.033
X-9.742 Y-16.393
X-9.148 Y-16.732
X-8.541 Y-17.049
X-7.924 Y-17.345
X-7.296 Y-17.618
X-6.66 Y-17.869
X-6.014 Y-18.097
X-5.361 Y-18.302
X-4.701 Y-18.482
X-4.035 Y-18.639
X-3.363 Y-18.772
X-2.687 Y-18.881
X-2.008 Y-18.966
X-1.326 Y-19.026
X-0.643 Y-19.061
X0.042 Y-19.071
X0.726 Y-19.057
X1.409 Y-19.019
X2.091 Y-18.956
X2.77 Y-18.869
X3.445 Y-18.758
X4.116 Y-18.624
X4.782 Y-18.465
X5.442 Y-18.283
X6.095 Y-18.077
X6.74 Y-17.849
X7.376 Y-17.597
X8.004 Y-17.323
X8.621 Y-17.027
X9.227 Y-16.71
X9.822 Y-16.371
X10.404 Y-16.01
X10.973 Y-15.63
X11.528 Y-15.23
X12.069 Y-14.811
X12.595 Y-14.373
X13.105 Y-13.916
X13.599 Y-13.443
X14.077 Y-12.952
X14.536 Y-12.445
X14.978 Y-11.922
X15.401 Y-11.384
X15.805 Y-10.831
X16.189 Y-10.265
X16.553 Y-9.685
X16.897 Y-9.094
X17.22 Y-8.49
X17.521 Y-7.875
X17.801 Y-7.25
X18.058 Y-6.616
X18.293 Y-5.974
X18.506 Y-5.323
X18.697 Y-4.666
X18.864 Y-4.002
X19.008 Y-3.333
X19.129 Y-2.659
X19.226 Y-1.982
X19.3 Y-1.301
X19.35 Y-0.618
X19.376 Y0.066
X19.378 Y0.75
X19.356 Y1.434
X19.311 Y2.117
X19.241 Y2.798
X19.147 Y3.476
X19.03 Y4.15
X18.889 Y4.82
X18.724 Y5.484
X18.537 Y6.143
X18.326 Y6.794
X18.093 Y7.438
X17.838 Y8.073
X17.561 Y8.699
X17.262 Y9.314
X16.941 Y9.919
X16.6 Y10.512
X16.237 Y11.093
X15.855 Y11.661
X15.453 Y12.215
X15.032 Y12.754
X14.592 Y13.278
X14.134 Y13.787
X13.658 Y14.279
X13.165 Y14.754
X12.656 Y15.212
X12.132 Y15.651
X11.592 Y16.073
X11.039 Y16.475
X10.471 Y16.858
X9.891 Y17.221
X9.298 Y17.564
X8.694 Y17.885
X8.079 Y18.186
X7.454 Y18.465
X6.82 Y18.721
X6.177 Y18.956
X5.526 Y19.168
X4.868 Y19.357
X4.204 Y19.523
X3.535 Y19.666
X2.861 Y19.785
X2.183 Y19.881
X1.502 Y19.953
X0.82 Y20.002
X0.136 Y20.028
X-0.549 Y20.03
X-1.233 Y20.008
X-1.916 Y19.963
X-2.597 Y19.894
X-3.275 Y19.801
X-3.95 Y19.686
X-4.62 Y19.547
X-5.285 Y19.385
X-5.944 Y19.201
X-6.596 Y18.993
X-7.241 Y18.763
X-7.877 Y18.511
X-8.505 Y18.238
X-9.123 Y17.943
X-9.73 Y17.627
X-10.326 Y17.29
X-10.91 Y16.934
X-11.482 Y16.557
X-12.04 Y16.162
X-12.585 Y15.747
X-13.115 Y15.314
X-13.63 Y14.863
X-14.129 Y14.395
X-14.612 Y13.91
X-15.079 Y13.409
X-15.527 Y12.892
X-15.958 Y12.36
X-16.37 Y11.814
X-16.763 Y11.253
X-17.137 Y10.68
X-17.492 Y10.095
X-17.826 Y9.497
X-18.139 Y8.889
X-18.432 Y8.27
X-18.704 Y7.642
X-18.954 Y7.005
X-19.183 Y6.36
X-19.389 Y5.707
X-19.573 Y5.048
X-19.735 Y4.383
X-19.873 Y3.712
X-19.989 Y3.038
X-20.082 Y2.36
X-20.152 Y1.679
X-20.198 Y0.996
X-20.221 Y0.312
Y-0.373
X-20.198 Y-1.057
X-20.151 Y-1.74
X-20.082 Y-2.42
X-19.99 Y-3.099
X-19.874 Y-3.773
X-19.736 Y-4.444
X-19.576 Y-5.109
X-19.392 Y-5.769
X-19.187 Y-6.421
X-18.959 Y-7.067
X-18.71 Y-7.704
X-18.44 Y-8.333
X-18.148 Y-8.952
X-17.835 Y-9.561
X-17.502 Y-10.159
X-17.148 Y-10.745
X-16.775 Y-11.319
X-16.383 Y-11.88
X-15.972 Y-12.427
X-15.543 Y-12.96
X-15.096 Y-13.479
X-14.631 Y-13.982
X-14.151 Y-14.469
X-13.654 Y-14.939
X-13.141 Y-15.393
X-12.613 Y-15.829
X-12.071 Y-16.246
X-11.515 Y-16.645
X-10.946 Y-17.025
X-10.364 Y-17.386
X-9.77 Y-17.727
X-9.165 Y-18.047
X-8.549 Y-18.346
X-7.924 Y-18.624
X-7.29 Y-18.881
X-6.647 Y-19.117
X-5.997 Y-19.331
X-5.34 Y-19.523
X-4.677 Y-19.692
X-4.008 Y-19.839
X-3.335 Y-19.964
X-2.658 Y-20.065
X-1.978 Y-20.144
X-1.296 Y-20.2
X-0.613 Y-20.232
X0.072 Y-20.242
X0.756 Y-20.228
X1.44 Y-20.191
X2.121 Y-20.131
X2.801 Y-20.048
X3.477 Y-19.942
X4.149 Y-19.813
X4.817 Y-19.662
X5.479 Y-19.489
X6.135 Y-19.294
X6.784 Y-19.077
X7.426 Y-18.838
X8.059 Y-18.578
X8.683 Y-18.297
X9.297 Y-17.996
X9.901 Y-17.674
X10.494 Y-17.332
X11.076 Y-16.97
X11.645 Y-16.59
X12.201 Y-16.19
X12.743 Y-15.773
X13.271 Y-15.337
X13.784 Y-14.884
X14.282 Y-14.414
X14.764 Y-13.928
X15.23 Y-13.427
X15.679 Y-12.91
X16.11 Y-12.379
X16.524 Y-11.834
X16.92 Y-11.276
X17.297 Y-10.705
X17.656 Y-10.122
X17.995 Y-9.527
X18.313 Y-8.921
X18.612 Y-8.305
X18.891 Y-7.68
X19.148 Y-7.046
X19.385 Y-6.404
X19.6 Y-5.754
X19.793 Y-5.097
X19.965 Y-4.435
X20.115 Y-3.767
X20.243 Y-3.095
X20.349 Y-2.418
X20.433 Y-1.739
X20.494 Y-1.057
X20.533 Y-0.374
X20.549 Y0.31
X20.543 Y0.995
X20.515 Y1.679
X20.464 Y2.361
X20.39 Y3.042
X20.294 Y3.719
X20.175 Y4.393
X20.035 Y5.063
X19.872 Y5.728
X19.687 Y6.387
X19.48 Y7.04
X19.252 Y7.685
X19.003 Y8.322
X18.732 Y8.951
X18.441 Y9.571
X18.13 Y10.18
X17.799 Y10.779
X17.448 Y11.367
X17.078 Y11.943
X16.69 Y12.506
X16.283 Y13.057
X15.858 Y13.593
X15.415 Y14.115
X14.955 Y14.622
X14.479 Y15.114
X13.987 Y15.59
X13.48 Y16.049
X12.957 Y16.491
X12.42 Y16.916
X11.869 Y17.322
X11.306 Y17.711
X10.73 Y18.08
X10.142 Y18.431
X9.543 Y18.762
X8.934 Y19.074
X8.314 Y19.365
X7.686 Y19.636
X7.048 Y19.886
X6.404 Y20.115
X5.751 Y20.323
X5.093 Y20.509
X4.428 Y20.673
X3.759 Y20.816
X3.085 Y20.936
X2.408 Y21.034
X1.727 Y21.11
X1.045 Y21.163
X0.361 Y21.194
X-0.323 Y21.203
X-1.008 Y21.189
X-1.691 Y21.154
X-2.373 Y21.096
X-3.053 Y21.016
X-3.73 Y20.913
X-4.403 Y20.79
X-5.072 Y20.644
X-5.735 Y20.477
X-6.393 Y20.288
X-7.045 Y20.077
X-7.689 Y19.846
X-8.325 Y19.594
X-8.953 Y19.322
X-9.572 Y19.029
X-10.18 Y18.716
X-10.778 Y18.383
X-11.366 Y18.031
X-11.941 Y17.66
X-12.504 Y17.271
X-13.055 Y16.864
X-13.592 Y16.44
X-14.115 Y15.998
X-14.623 Y15.54
X-15.117 Y15.066
X-15.595 Y14.576
X-16.057 Y14.071
X-16.502 Y13.551
X-16.93 Y13.018
X-17.341 Y12.47
X-17.734 Y11.91
X-18.109 Y11.337
X-18.465 Y10.753
X-18.802 Y10.157
X-19.119 Y9.55
X-19.417 Y8.934
X-19.695 Y8.308
X-19.953 Y7.674
X-20.19 Y7.032
X-20.406 Y6.383
X-20.602 Y5.727
X-20.776 Y5.065
X-20.929 Y4.398
X-21.061 Y3.726
X-21.171 Y3.051
X-21.26 Y2.372
X-21.326 Y1.691
X-21.371 Y1.008
X-21.393 Y0.324
X-21.394 Y-0.361
X-21.373 Y-1.045
X-21.329 Y-1.728
X-21.264 Y-2.409
X-21.176 Y-3.088
X-21.067 Y-3.764
X-20.937 Y-4.436
X-20.785 Y-5.103
X-20.611 Y-5.765
X-20.417 Y-6.422
X-20.202 Y-7.071
X-19.966 Y-7.714
X-19.71 Y-8.349
X-19.434 Y-8.975
X-19.138 Y-9.592
X-18.822 Y-10.199
X-18.487 Y-10.796
X-18.133 Y-11.382
X-17.76 Y-11.956
X-17.369 Y-12.518
X-16.96 Y-13.067
X-16.534 Y-13.602
X-16.09 Y-14.123
X-15.631 Y-14.63
X-15.155 Y-15.123
X-14.664 Y-15.599
X-14.158 Y-16.06
X-13.637 Y-16.505
X-13.103 Y-16.932
X-12.555 Y-17.343
X-11.995 Y-17.736
X-11.422 Y-18.11
X-10.837 Y-18.466
X-10.242 Y-18.804
X-9.636 Y-19.122
X-9.02 Y-19.42
X-8.394 Y-19.699
X-7.761 Y-19.957
X-7.119 Y-20.195
X-6.47 Y-20.412
X-5.814 Y-20.608
X-5.152 Y-20.783
X-4.485 Y-20.937
X-3.814 Y-21.069
X-3.138 Y-21.18
X-2.46 Y-21.27
X-1.779 Y-21.338
X-1.096 Y-21.384
X-0.412 Y-21.408
X0.273 Y-21.411
X0.957 Y-21.392
X1.64 Y-21.351
X2.322 Y-21.288
X3.001 Y-21.203
X3.677 Y-21.097
X4.35 Y-20.97
X5.018 Y-20.821
X5.681 Y-20.65
X6.338 Y-20.459
X6.989 Y-20.247
X7.632 Y-20.014
X8.268 Y-19.762
X8.896 Y-19.489
X9.515 Y-19.197
X10.125 Y-18.885
X10.724 Y-18.554
X11.312 Y-18.205
X11.89 Y-17.837
X12.455 Y-17.452
X13.009 Y-17.049
X13.549 Y-16.628
X14.075 Y-16.191
X14.588 Y-15.738
X15.086 Y-15.268
X15.57 Y-14.784
X16.037 Y-14.284
X16.489 Y-13.769
X16.924 Y-13.241
X17.342 Y-12.7
X17.744 Y-12.145
X18.128 Y-11.579
X18.494 Y-11.
X18.842 Y-10.411
X19.172 Y-9.811
X19.482 Y-9.201
X19.774 Y-8.582
X20.046 Y-7.954
X20.299 Y-7.318
X20.531 Y-6.674
X20.744 Y-6.023
X20.935 Y-5.366
X21.107 Y-4.704
X21.258 Y-4.036
X21.388 Y-3.364
X21.496 Y-2.688
X21.583 Y-2.009
X21.649 Y-1.328
X21.694 Y-0.645
X21.718 Y0.039
X21.72 Y0.723
X21.702 Y1.408
X21.662 Y2.091
X21.6 Y2.773
X21.518 Y3.452
X21.414 Y4.129
X21.289 Y4.802
X21.143 Y5.47
X20.977 Y6.134
X20.789 Y6.792
X20.581 Y7.445
X20.353 Y8.09
X20.105 Y8.728
X19.836 Y9.357
X19.548 Y9.978
X19.24 Y10.59
X18.914 Y11.191
X18.569 Y11.782
X18.205 Y12.362
X17.824 Y12.931
X17.425 Y13.487
X17.009 Y14.03
X16.576 Y14.561
X16.127 Y15.077
X15.662 Y15.58
X15.182 Y16.067
X14.686 Y16.539
X14.177 Y16.996
X13.653 Y17.436
X13.115 Y17.86
X12.565 Y18.267
X12.002 Y18.657
X11.427 Y19.029
X10.841 Y19.382
X10.244 Y19.717
X9.637 Y20.034
X9.021 Y20.331
X8.396 Y20.609
X7.762 Y20.868
X7.121 Y21.107
X6.472 Y21.326
X5.817 Y21.524
X5.156 Y21.703
X4.49 Y21.86
X3.82 Y21.997
X3.145 Y22.113
X2.467 Y22.208
X1.787 Y22.282
X1.104 Y22.335
X0.42 Y22.366
X-0.264 Y22.377
X-0.948 Y22.366
X-1.632 Y22.334
X-2.314 Y22.28
X-2.995 Y22.206
X-3.673 Y22.111
X-4.347 Y21.995
X-5.018 Y21.858
X-5.684 Y21.701
X-6.345 Y21.523
X-7. Y21.326
X-7.649 Y21.108
X-8.291 Y20.871
X-8.926 Y20.613
X-9.552 Y20.337
X-10.169 Y20.041
X-10.777 Y19.727
X-11.375 Y19.393
X-11.962 Y19.042
X-12.539 Y18.673
X-13.103 Y18.286
X-13.656 Y17.882
X-14.195 Y17.461
X-14.722 Y17.024
X-15.235 Y16.571
X-15.734 Y16.102
X-16.219 Y15.619
X-16.688 Y15.121
X-17.143 Y14.609
X-17.581 Y14.083
X-18.003 Y13.545
X-18.409 Y12.993
X-18.797 Y12.43
X-19.169 Y11.855
X-19.522 Y11.269
X-19.857 Y10.672
X-20.174 Y10.065
X-20.472 Y9.449
X-20.752 Y8.824
X-21.011 Y8.191
X-21.252 Y7.55
X-21.472 Y6.902
X-21.673 Y6.248
X-21.854 Y5.588
X-22.015 Y4.922
X-22.156 Y4.253
X-22.276 Y3.579
X-22.376 Y2.902
X-22.455 Y2.222
X-22.513 Y1.54
X-22.551 Y0.856
X-22.568 Y0.172
X-22.564 Y-0.512
X-22.539 Y-1.196
X-22.494 Y-1.879
X-22.427 Y-2.561
X-22.34 Y-3.239
X-22.233 Y-3.915
X-22.105 Y-4.588
X-21.956 Y-5.256
X-21.786 Y-5.919
X-21.597 Y-6.577
X-21.388 Y-7.229
X-21.16 Y-7.874
X-20.912 Y-8.512
X-20.645 Y-9.142
X-20.359 Y-9.764
X-20.054 Y-10.377
X-19.73 Y-10.98
X-19.389 Y-11.573
X-19.03 Y-12.156
X-18.653 Y-12.727
X-18.26 Y-13.287
X-17.849 Y-13.835
X-17.422 Y-14.37
X-16.979 Y-14.891
X-16.52 Y-15.399
X-16.046 Y-15.893
X-15.556 Y-16.372
X-15.053 Y-16.835
X-14.536 Y-17.284
X-14.005 Y-17.716
X-13.462 Y-18.132
X-12.906 Y-18.532
X-12.339 Y-18.915
X-11.76 Y-19.28
X-11.17 Y-19.628
X-10.571 Y-19.958
X-9.961 Y-20.269
X-9.343 Y-20.562
X-8.715 Y-20.836
X-8.08 Y-21.091
X-7.437 Y-21.326
X-6.788 Y-21.542
X-6.132 Y-21.738
X-5.47 Y-21.914
X-4.804 Y-22.069
X-4.133 Y-22.205
X-3.458 Y-22.319
X-2.78 Y-22.414
X-2.1 Y-22.487
X-1.417 Y-22.54
X-0.734 Y-22.573
X-0.049 Y-22.585
X0.635 Y-22.576
X1.319 Y-22.547
X2.002 Y-22.497
X2.682 Y-22.427
X3.361 Y-22.336
X4.036 Y-22.225
X4.708 Y-22.093
X5.375 Y-21.941
X6.038 Y-21.769
X6.695 Y-21.577
X7.346 Y-21.366
X7.99 Y-21.135
X8.627 Y-20.884
X9.256 Y-20.615
X9.877 Y-20.326
X10.489 Y-20.02
X11.091 Y-19.695
X11.684 Y-19.352
X12.266 Y-18.992
X12.837 Y-18.615
X13.396 Y-18.22
X13.944 Y-17.81
X14.479 Y-17.383
X15.001 Y-16.941
X15.51 Y-16.483
X16.005 Y-16.01
X16.486 Y-15.523
X16.952 Y-15.022
X17.403 Y-14.507
X17.838 Y-13.978
X18.258 Y-13.438
X18.661 Y-12.884
X19.047 Y-12.319
X19.416 Y-11.743
X19.768 Y-11.156
X20.103 Y-10.559
X20.42 Y-9.952
X20.719 Y-9.336
X20.999 Y-8.712
X21.261 Y-8.08
X21.504 Y-7.44
X21.729 Y-6.793
X21.934 Y-6.14
X22.119 Y-5.482
X22.286 Y-4.818
X22.432 Y-4.149
X22.559 Y-3.476
X22.666 Y-2.8
X22.752 Y-2.121
X22.819 Y-1.44
X22.865 Y-0.757
X22.891 Y-0.073
X22.896 Y0.611
X22.882 Y1.296
X22.846 Y1.979
X22.791 Y2.661
X22.716 Y3.342
X22.62 Y4.019
X22.505 Y4.694
X22.369 Y5.365
X22.214 Y6.032
X22.039 Y6.693
X21.845 Y7.35
X21.631 Y8.
X21.398 Y8.643
X21.146 Y9.28
X20.875 Y9.908
X20.586 Y10.529
X20.278 Y11.14
X19.952 Y11.742
X19.608 Y12.334
X19.247 Y12.915
X18.868 Y13.485
X18.473 Y14.044
X18.061 Y14.591
X17.634 Y15.125
X17.19 Y15.647
X16.732 Y16.155
X16.258 Y16.649
X15.771 Y17.13
X15.269 Y17.595
X14.754 Y18.046
X14.226 Y18.481
X13.685 Y18.901
X13.132 Y19.304
X12.567 Y19.691
X11.991 Y20.06
X11.404 Y20.413
X10.807 Y20.748
X10.201 Y21.065
X9.585 Y21.365
X8.961 Y21.645
X8.329 Y21.907
X7.689 Y22.15
X7.042 Y22.375
X6.389 Y22.58
X5.731 Y22.766
X5.067 Y22.932
X4.398 Y23.079
X3.726 Y23.206
X3.05 Y23.313
X2.371 Y23.401
X1.69 Y23.468
X1.007 Y23.516
X0.323 Y23.543
X-0.362 Y23.55
X-1.046 Y23.537
X-1.73 Y23.504
X-2.412 Y23.451
X-3.093 Y23.378
X-3.771 Y23.285
X-4.446 Y23.171
X-5.117 Y23.039
X-5.784 Y22.886
X-6.447 Y22.714
X-7.104 Y22.523
X-7.756 Y22.313
X-8.401 Y22.084
X-9.039 Y21.836
X-9.669 Y21.57
X-10.292 Y21.286
X-10.906 Y20.983
X-11.511 Y20.663
X-12.106 Y20.325
X-12.691 Y19.971
X-13.266 Y19.599
X-13.83 Y19.21
X-14.382 Y18.805
X-14.922 Y18.385
X-15.449 Y17.949
X-15.964 Y17.497
X-16.465 Y17.031
X-16.952 Y16.55
X-17.425 Y16.055
X-17.883 Y15.547
X-18.327 Y15.026
X-18.755 Y14.492
X-19.168 Y13.946
X-19.565 Y13.389
X-19.945 Y12.82
X-20.309 Y12.24
X-20.656 Y11.65
X-20.986 Y11.05
X-21.298 Y10.441
X-21.593 Y9.823
X-21.869 Y9.197
X-22.127 Y8.563
X-22.366 Y7.922
X-22.587 Y7.274
X-22.789 Y6.62
X-22.972 Y5.96
X-23.136 Y5.296
X-23.28 Y4.626
X-23.404 Y3.953
X-23.51 Y3.277
X-23.595 Y2.598
X-23.662 Y1.917
X-23.708 Y1.234
X-23.735 Y0.55
X-23.742 Y-0.134
X-23.73 Y-0.819
X-23.697 Y-1.503
X-23.645 Y-2.185
X-23.573 Y-2.866
X-23.482 Y-3.544
X-23.371 Y-4.219
X-23.241 Y-4.891
X-23.091 Y-5.559
X-22.922 Y-6.222
X-22.734 Y-6.881
X-22.526 Y-7.533
X-22.3 Y-8.179
X-22.055 Y-8.818
X-21.792 Y-9.45
X-21.511 Y-10.074
X-21.212 Y-10.69
X-20.896 Y-11.297
X-20.562 Y-11.894
X-20.211 Y-12.482
X-19.843 Y-13.059
X-19.459 Y-13.626
X-19.059 Y-14.181
X-18.643 Y-14.724
X-18.211 Y-15.256
X-17.765 Y-15.774
X-17.303 Y-16.28
X-16.827 Y-16.772
X-16.337 Y-17.25
X-15.834 Y-17.713
X-15.317 Y-18.162
X-14.788 Y-18.596
X-14.246 Y-19.014
X-13.692 Y-19.417
X-13.127 Y-19.803
X-12.551 Y-20.173
X-11.965 Y-20.526
X-11.368 Y-20.862
X-10.763 Y-21.181
X-10.148 Y-21.482
X-9.525 Y-21.766
X-8.894 Y-22.031
X-8.256 Y-22.278
X-7.611 Y-22.507
X-6.96 Y-22.717
X-6.303 Y-22.909
X-5.64 Y-23.081
X-4.973 Y-23.234
X-4.302 Y-23.368
X-3.627 Y-23.482
X-2.949 Y-23.577
X-2.269 Y-23.652
X-1.586 Y-23.708
X-0.903 Y-23.743
X-0.219 Y-23.759
X0.466 Y-23.756
X1.15 Y-23.732
X1.833 Y-23.689
X2.515 Y-23.627
X3.194 Y-23.545
X3.871 Y-23.444
X4.545 Y-23.323
X5.215 Y-23.184
X5.881 Y-23.025
X6.542 Y-22.847
X7.197 Y-22.65
X7.847 Y-22.435
X8.49 Y-22.201
X9.127 Y-21.949
X9.755 Y-21.679
X10.376 Y-21.391
X10.989 Y-21.085
X11.592 Y-20.762
X12.186 Y-20.421
X12.77 Y-20.064
X13.343 Y-19.691
X13.906 Y-19.301
X14.458 Y-18.896
X14.997 Y-18.475
X15.525 Y-18.039
X16.041 Y-17.589
X16.543 Y-17.124
X17.032 Y-16.645
X17.507 Y-16.152
X17.968 Y-15.646
X18.415 Y-15.128
X18.847 Y-14.597
X19.263 Y-14.054
X19.664 Y-13.499
X20.05 Y-12.933
X20.419 Y-12.357
X20.772 Y-11.77
X21.107 Y-11.174
X21.426 Y-10.568
X21.728 Y-9.954
X22.012 Y-9.331
X22.278 Y-8.701
X22.527 Y-8.063
X22.758 Y-7.419
X22.97 Y-6.768
X23.165 Y-6.112
X23.341 Y-5.45
X23.498 Y-4.784
X23.636 Y-4.114
X23.756 Y-3.44
X23.856 Y-2.763
X23.938 Y-2.083
X24. Y-1.401
X24.043 Y-0.718
X24.067 Y-0.034
X24.071 Y0.65
X24.056 Y1.334
X24.022 Y2.018
X23.969 Y2.7
X23.896 Y3.381
X23.804 Y4.059
X23.692 Y4.735
X23.562 Y5.406
X23.413 Y6.074
X23.245 Y6.738
X23.058 Y7.397
X22.853 Y8.05
X22.63 Y8.697
X22.389 Y9.337
X22.129 Y9.971
X21.852 Y10.596
X21.557 Y11.214
X21.245 Y11.823
X20.916 Y12.423
X20.57 Y13.014
X20.207 Y13.594
X19.828 Y14.164
X19.433 Y14.723
X19.022 Y15.271
X18.596 Y15.806
X18.155 Y16.33
X17.699 Y16.84
X17.229 Y17.338
X16.746 Y17.822
X16.248 Y18.293
X15.738 Y18.749
X15.215 Y19.191
X14.68 Y19.618
X14.134 Y20.029
X13.576 Y20.426
X13.007 Y20.806
X12.427 Y21.17
X11.838 Y21.518
X11.239 Y21.85
X10.631 Y22.164
X10.014 Y22.461
X9.389 Y22.74
X8.757 Y23.002
X8.117 Y23.246
X7.471 Y23.472
X6.819 Y23.679
X6.161 Y23.868
X5.498 Y24.038
X4.83 Y24.19
X4.159 Y24.322
X3.484 Y24.436
X2.806 Y24.532
X2.126 Y24.608
X1.444 Y24.665
X0.761 Y24.703
X0.076 Y24.722
X-0.608
X-1.292 Y24.703
X-1.976 Y24.665
X-2.658 Y24.607
X-3.338 Y24.531
X-4.016 Y24.436
X-4.691 Y24.322
X-5.362 Y24.189
X-6.03 Y24.037
X-6.692 Y23.867
X-7.35 Y23.678
X-8.003 Y23.471
X-8.649 Y23.246
X-9.289 Y23.003
X-9.922 Y22.742
X-10.547 Y22.464
X-11.165 Y22.168
X-11.774 Y21.856
X-12.374 Y21.527
X-12.965 Y21.181
X-13.546 Y20.82
X-14.116 Y20.442
X-14.676 Y20.048
X-15.225 Y19.639
X-15.763 Y19.216
X-16.288 Y18.777
X-16.801 Y18.324
X-17.302 Y17.857
X-17.789 Y17.376
X-18.263 Y16.882
X-18.722 Y16.375
X-19.168 Y15.855
X-19.599 Y15.323
X-20.015 Y14.78
X-20.415 Y14.225
X-20.801 Y13.659
X-21.17 Y13.083
X-21.524 Y12.497
X-21.861 Y11.902
X-22.182 Y11.297
X-22.486 Y10.684
X-22.773 Y10.062
X-23.043 Y9.433
X-23.295 Y8.797
X-23.53 Y8.154
X-23.747 Y7.505
X-23.946 Y6.85
X-24.127 Y6.19
X-24.289 Y5.525
X-24.433 Y4.856
X-24.559 Y4.183
X-24.666 Y3.507
X-24.754 Y2.828
X-24.823 Y2.147
X-24.873 Y1.465
X-24.905 Y0.781
X-24.918 Y0.097
X-24.912 Y-0.588
X-24.887 Y-1.272
X-24.844 Y-1.955
X-24.781 Y-2.637
X-24.701 Y-3.316
X-24.601 Y-3.994
X-24.483 Y-4.668
X-24.346 Y-5.338
X-24.191 Y-6.005
X-24.018 Y-6.667
X-23.827 Y-7.324
X-23.617 Y-7.976
X-23.39 Y-8.622
X-23.145 Y-9.261
X-22.883 Y-9.893
X-22.603 Y-10.518
X-22.306 Y-11.134
X-21.992 Y-11.742
X-21.661 Y-12.342
X-21.314 Y-12.932
X-20.951 Y-13.512
X-20.573 Y-14.082
X-20.178 Y-14.642
X-19.769 Y-15.19
X-19.345 Y-15.728
X-18.906 Y-16.253
X-18.453 Y-16.766
X-17.986 Y-17.267
X-17.506 Y-17.754
X-17.012 Y-18.228
X-16.506 Y-18.688
X-15.987 Y-19.135
X-15.456 Y-19.567
X-14.913 Y-19.984
X-14.359 Y-20.386
X-13.794 Y-20.772
X-13.219 Y-21.143
X-12.633 Y-21.498
X-12.038 Y-21.836
X-11.434 Y-22.158
X-10.822 Y-22.464
X-10.201 Y-22.752
X-9.573 Y-23.023
X-8.937 Y-23.277
X-8.295 Y-23.514
X-7.646 Y-23.733
X-6.992 Y-23.934
X-6.333 Y-24.117
X-5.668 Y-24.282
X-5. Y-24.429
X-4.327 Y-24.557
X-3.652 Y-24.667
X-2.973 Y-24.758
X-2.293 Y-24.83
X-1.611 Y-24.884
X-0.927 Y-24.919
X-0.243 Y-24.935
X0.442 Y-24.933
X1.126 Y-24.912
X1.809 Y-24.871
X2.491 Y-24.812
X3.171 Y-24.735
X3.849 Y-24.638
X4.524 Y-24.524
X5.195 Y-24.391
X5.863 Y-24.24
X6.526 Y-24.071
X7.184 Y-23.884
X7.837 Y-23.678
X8.484 Y-23.456
X9.125 Y-23.216
X9.76 Y-22.958
X10.386 Y-22.683
X11.006 Y-22.392
X11.617 Y-22.083
X12.219 Y-21.758
X12.813 Y-21.417
X13.396 Y-21.06
X13.971 Y-20.687
X14.534 Y-20.299
X15.087 Y-19.896
X15.629 Y-19.477
X16.159 Y-19.044
X16.677 Y-18.597
X17.183 Y-18.136
X17.677 Y-17.662
X18.157 Y-17.175
X18.625 Y-16.675
X19.078 Y-16.162
X19.518 Y-15.638
X19.944 Y-15.101
X20.355 Y-14.554
X20.751 Y-13.996
X21.131 Y-13.427
X21.497 Y-12.848
X21.847 Y-12.26
X22.18 Y-11.662
X22.498 Y-11.056
X22.799 Y-10.441
X23.083 Y-9.819
X23.351 Y-9.189
X23.601 Y-8.552
X23.834 Y-7.908
X24.05 Y-7.259
X24.248 Y-6.603
X24.429 Y-5.943
X24.592 Y-5.278
X24.737 Y-4.609
X24.864 Y-3.937
X24.973 Y-3.261
X25.064 Y-2.583
X25.137 Y-1.902
X25.191 Y-1.22
X25.228 Y-0.536
X25.245 Y0.148
Y0.832
X25.226 Y1.516
X25.189 Y2.2
X25.133 Y2.882
X25.059 Y3.563
X24.966 Y4.241
X24.855 Y4.916
X24.727 Y5.588
X24.579 Y6.257
X24.414 Y6.921
X24.231 Y7.581
X24.03 Y8.235
X23.812 Y8.884
X23.576 Y9.526
X23.324 Y10.162
X23.054 Y10.791
X22.767 Y11.413
X22.464 Y12.027
X22.144 Y12.632
X21.809 Y13.228
X21.457 Y13.815
X21.089 Y14.393
X20.707 Y14.96
X20.309 Y15.517
X19.896 Y16.063
X19.468 Y16.598
X19.026 Y17.12
X18.571 Y17.631
X18.102 Y18.129
X17.619 Y18.615
X17.123 Y19.087
X16.615 Y19.546
X16.095 Y19.99
X15.563 Y20.421
X15.02 Y20.837
X14.465 Y21.239
X13.901 Y21.626
X13.326 Y21.997
X12.741 Y22.353
X12.147 Y22.693
X11.544 Y23.017
X10.933 Y23.325
X10.314 Y23.617
X9.687 Y23.891
X9.053 Y24.149
X8.412 Y24.39
X7.765 Y24.613
X7.112 Y24.819
X6.454 Y25.007
X5.791 Y25.178
X5.124 Y25.331
X4.453 Y25.465
X3.779 Y25.582
X3.101 Y25.68
X2.422 Y25.761
X1.74 Y25.823
X1.057 Y25.867
X0.373 Y25.893
X-0.312 Y25.9
X-0.996 Y25.89
X-1.68 Y25.861
X-2.363 Y25.814
X-3.044 Y25.749
X-3.723 Y25.666
X-4.4 Y25.565
X-5.074 Y25.446
X-5.745 Y25.309
X-6.412 Y25.154
X-7.074 Y24.982
X-7.732 Y24.792
X-8.384 Y24.584
X-9.031 Y24.36
X-9.671 Y24.118
X-10.304 Y23.859
X-10.931 Y23.583
X-11.55 Y23.291
X-12.161 Y22.982
X-12.763 Y22.658
X-13.357 Y22.317
X-13.942 Y21.961
X-14.517 Y21.59
X-15.082 Y21.203
X-15.636 Y20.802
X-16.18 Y20.387
X-16.713 Y19.957
X-17.234 Y19.513
X-17.743 Y19.056
X-18.24 Y18.585
X-18.725 Y18.102
X-19.196 Y17.605
X-19.654 Y17.097
X-20.098 Y16.576
X-20.529 Y16.044
X-20.945 Y15.501
X-21.347 Y14.947
X-21.734 Y14.382
X-22.106 Y13.808
X-22.463 Y13.223
X-22.804 Y12.63
X-23.129 Y12.028
X-23.438 Y11.417
X-23.731 Y10.799
X-24.008 Y10.173
X-24.269 Y9.54
X-24.512 Y8.9
X-24.739 Y8.254
X-24.949 Y7.603
X-25.141 Y6.946
X-25.316 Y6.284
X-25.474 Y5.618
X-25.614 Y4.948
X-25.736 Y4.275
X-25.841 Y3.598
X-25.928 Y2.919
X-25.996 Y2.238
X-26.047 Y1.556
X-26.08 Y0.872
X-26.095 Y0.188
X-26.092 Y-0.497
X-26.07 Y-1.181
X-26.031 Y-1.864
X-25.973 Y-2.546
X-25.898 Y-3.227
X-25.805 Y-3.905
X-25.695 Y-4.58
X-25.566 Y-5.253
X-25.421 Y-5.921
X-25.257 Y-6.586
X-25.077 Y-7.246
X-24.879 Y-7.901
X-24.663 Y-8.551
X-24.431 Y-9.195
X-24.183 Y-9.833
X-23.917 Y-10.464
X-23.635 Y-11.087
X-23.337 Y-11.703
X-23.022 Y-12.311
X-22.692 Y-12.911
X-22.346 Y-13.501
X-21.985 Y-14.083
X-21.608 Y-14.654
X-21.217 Y-15.216
X-20.81 Y-15.767
X-20.39 Y-16.307
X-19.955 Y-16.836
X-19.507 Y-17.353
X-19.046 Y-17.858
X-18.571 Y-18.352
X-18.084 Y-18.832
X-17.584 Y-19.3
X-17.073 Y-19.755
X-16.549 Y-20.196
X-16.014 Y-20.623
X-15.468 Y-21.036
X-14.912 Y-21.434
X-14.345 Y-21.818
X-13.768 Y-22.187
X-13.182 Y-22.54
X-12.587 Y-22.878
X-11.983 Y-23.2
X-11.371 Y-23.506
X-10.751 Y-23.796
X-10.124 Y-24.07
X-9.489 Y-24.327
X-8.848 Y-24.567
X-8.201 Y-24.79
X-7.549 Y-24.996
X-6.891 Y-25.186
X-6.228 Y-25.357
X-5.561 Y-25.512
X-4.891 Y-25.649
X-4.217 Y-25.769
X-3.54 Y-25.871
X-2.861 Y-25.955
X-2.18 Y-26.021
X-1.497 Y-26.069
X-0.813 Y-26.1
X-0.129 Y-26.113
X0.556 Y-26.107
X1.24 Y-26.084
X1.923 Y-26.043
X2.605 Y-25.984
X3.285 Y-25.907
X3.963 Y-25.813
X4.638 Y-25.7
X5.31 Y-25.57
X5.979 Y-25.423
X6.643 Y-25.258
X7.303 Y-25.076
X7.957 Y-24.876
X8.607 Y-24.66
X9.251 Y-24.427
X9.888 Y-24.178
X10.519 Y-23.912
X11.142 Y-23.63
X11.758 Y-23.332
X12.366 Y-23.017
X12.966 Y-22.688
X13.557 Y-22.343
X14.139 Y-21.982
X14.712 Y-21.607
X15.274 Y-21.217
X15.826 Y-20.812
X16.368 Y-20.394
X16.898 Y-19.961
X17.417 Y-19.515
X17.925 Y-19.056
X18.42 Y-18.583
X18.903 Y-18.098
X19.373 Y-17.601
X19.83 Y-17.092
X20.275 Y-16.571
X20.705 Y-16.039
X21.122 Y-15.496
X21.524 Y-14.942
X21.913 Y-14.379
X22.287 Y-13.805
X22.645 Y-13.222
X22.989 Y-12.63
X23.318 Y-12.03
X23.631 Y-11.421
X23.928 Y-10.805
X24.209 Y-10.181
X24.474 Y-9.55
X24.723 Y-8.912
X24.956 Y-8.268
X25.171 Y-7.619
X25.37 Y-6.964
X25.553 Y-6.304
X25.717 Y-5.64
X25.865 Y-4.971
X25.996 Y-4.3
X26.109 Y-3.625
X26.205 Y-2.947
X26.284 Y-2.267
X26.345 Y-1.585
X26.389 Y-0.902
X26.415 Y-0.218
X26.424 Y0.466
X26.415 Y1.151
X26.389 Y1.835
X26.345 Y2.518
X26.283 Y3.199
X26.204 Y3.879
X26.108 Y4.557
X25.994 Y5.232
X25.863 Y5.904
X25.715 Y6.572
X25.549 Y7.236
X25.366 Y7.895
X25.167 Y8.55
X24.95 Y9.199
X24.717 Y9.843
X24.467 Y10.48
X24.2 Y11.111
X23.918 Y11.734
X23.62 Y12.35
X23.305 Y12.958
X22.976 Y13.558
X22.631 Y14.149
X22.271 Y14.732
X21.896 Y15.304
X21.507 Y15.867
X21.103 Y16.42
X20.685 Y16.962
X20.254 Y17.493
X19.809 Y18.013
X19.35 Y18.522
X18.879 Y19.018
X18.395 Y19.502
X17.899 Y19.973
X17.391 Y20.432
X16.871 Y20.877
X16.34 Y21.309
X15.798 Y21.727
X15.245 Y22.131
X14.682 Y22.52
X14.109 Y22.895
X13.527 Y23.255
X12.936 Y23.6
X12.337 Y23.93
X11.729 Y24.245
X11.113 Y24.543
X10.49 Y24.826
X9.859 Y25.093
X9.223 Y25.344
X8.579 Y25.579
X7.931 Y25.796
X7.276 Y25.998
X6.617 Y26.182
X5.953 Y26.349
X5.286 Y26.5
X4.614 Y26.633
X3.94 Y26.749
X3.262 Y26.847
X2.583 Y26.928
X1.901 Y26.992
X1.218 Y27.038
X0.535 Y27.067
X-0.15 Y27.078
X-0.834 Y27.072
X-1.518 Y27.048
X-2.202 Y27.007
X-2.884 Y26.949
X-3.564 Y26.874
X-4.242 Y26.781
X-4.918 Y26.671
X-5.59 Y26.544
X-6.259 Y26.4
X-6.924 Y26.239
X-7.585 Y26.061
X-8.242 Y25.866
X-8.893 Y25.655
X-9.538 Y25.427
X-10.178 Y25.183
X-10.811 Y24.923
X-11.437 Y24.647
X-12.056 Y24.355
X-12.667 Y24.047
X-13.271 Y23.724
X-13.866 Y23.385
X-14.452 Y23.032
X-15.029 Y22.664
X-15.596 Y22.281
X-16.154 Y21.884
X-16.701 Y21.473
X-17.238 Y21.049
X-17.764 Y20.611
X-18.279 Y20.16
X-18.782 Y19.696
X-19.274 Y19.219
X-19.753 Y18.731
X-20.22 Y18.23
X-20.674 Y17.718
X-21.115 Y17.194
X-21.542 Y16.66
X-21.956 Y16.115
X-22.356 Y15.559
X-22.742 Y14.994
X-23.113 Y14.419
X-23.47 Y13.835
X-23.812 Y13.242
X-24.139 Y12.64
X-24.45 Y12.031
X-24.746 Y11.413
X-25.026 Y10.789
X-25.29 Y10.157
X-25.538 Y9.52
X-25.771 Y8.876
X-25.987 Y8.226
X-26.187 Y7.572
X-26.37 Y6.912
X-26.536 Y6.248
X-26.686 Y5.58
X-26.819 Y4.909
X-26.935 Y4.235
X-27.034 Y3.557
X-27.116 Y2.878
X-27.181 Y2.196
X-27.229 Y1.514
X-27.26 Y0.83
X-27.273 Y0.145
X-27.269 Y-0.539
X-27.248 Y-1.223
X-27.209 Y-1.907
X-27.154 Y-2.589
X-27.081 Y-3.269
X-26.99 Y-3.948
X-26.883 Y-4.624
X-26.759 Y-5.297
X-26.618 Y-5.967
X-26.461 Y-6.633
X-26.286 Y-7.295
X-26.095 Y-7.952
X-25.888 Y-8.604
X-25.665 Y-9.251
X-25.425 Y-9.892
X-25.169 Y-10.527
X-24.898 Y-11.156
X-24.611 Y-11.777
X-24.308 Y-12.391
X-23.99 Y-12.997
X-23.657 Y-13.595
X-23.309 Y-14.184
X-22.946 Y-14.765
X-22.569 Y-15.336
X-22.177 Y-15.897
X-21.772 Y-16.449
X-21.353 Y-16.99
X-20.92 Y-17.52
X-20.474 Y-18.039
X-20.015 Y-18.547
X-19.543 Y-19.043
X-19.06 Y-19.527
X-18.564 Y-19.999
X-18.056 Y-20.459
X-17.538 Y-20.905
X-17.008 Y-21.338
X-16.467 Y-21.758
X-15.917 Y-22.165
X-15.356 Y-22.557
X-14.785 Y-22.936
X-14.206 Y-23.299
X-13.617 Y-23.649
X-13.02 Y-23.983
X-12.414 Y-24.302
X-11.801 Y-24.606
X-11.18 Y-24.894
X-10.552 Y-25.167
X-9.918 Y-25.424
X-9.277 Y-25.665
X-8.631 Y-25.889
X-7.979 Y-26.098
X-7.322 Y-26.289
X-6.66 Y-26.464
X-5.994 Y-26.623
X-5.324 Y-26.765
X-4.652 Y-26.89
X-3.976 Y-26.998
X-3.297 Y-27.089
X-2.617 Y-27.163
X-1.935 Y-27.221
X-1.252 Y-27.261
X-0.567 Y-27.284
X0.117 Y-27.29
X0.801 Y-27.279
X1.485 Y-27.25
X2.168 Y-27.205
X2.85 Y-27.143
X3.53 Y-27.063
X4.207 Y-26.967
X4.882 Y-26.853
X5.554 Y-26.723
X6.223 Y-26.576
X6.887 Y-26.412
X7.548 Y-26.232
X8.203 Y-26.035
X8.854 Y-25.822
X9.498 Y-25.593
X10.137 Y-25.347
X10.77 Y-25.086
X11.396 Y-24.81
X12.015 Y-24.518
X12.627 Y-24.211
X13.231 Y-23.888
X13.827 Y-23.551
X14.414 Y-23.199
X14.992 Y-22.833
X15.561 Y-22.453
X16.12 Y-22.058
X16.67 Y-21.65
X17.209 Y-21.229
X17.738 Y-20.794
X18.256 Y-20.346
X18.762 Y-19.886
X19.257 Y-19.413
X19.74 Y-18.928
X20.211 Y-18.432
X20.669 Y-17.923
X21.115 Y-17.404
X21.548 Y-16.874
X21.967 Y-16.333
X22.373 Y-15.782
X22.766 Y-15.221
X23.144 Y-14.65
X23.509 Y-14.071
X23.859 Y-13.483
X24.194 Y-12.886
X24.515 Y-12.282
X24.821 Y-11.669
X25.111 Y-11.05
X25.387 Y-10.423
X25.647 Y-9.79
X25.891 Y-9.15
X26.119 Y-8.505
X26.332 Y-7.855
X26.528 Y-7.199
X26.709 Y-6.539
X26.873 Y-5.874
X27.02 Y-5.206
X27.151 Y-4.534
X27.266 Y-3.859
X27.364 Y-3.182
X27.445 Y-2.502
X27.509 Y-1.821
X27.556 Y-1.138
X27.587 Y-0.454
X27.601 Y0.23
X27.598 Y0.915
X27.579 Y1.599
X27.542 Y2.282
X27.489 Y2.965
X27.419 Y3.646
X27.332 Y4.325
X27.229 Y5.001
X27.109 Y5.675
X26.973 Y6.346
X26.82 Y7.013
X26.65 Y7.676
X26.465 Y8.335
X26.263 Y8.989
X26.045 Y9.638
X25.811 Y10.281
X25.561 Y10.918
X25.295 Y11.549
X25.014 Y12.173
X24.718 Y12.79
X24.406 Y13.399
X24.079 Y14.001
X23.738 Y14.594
X23.382 Y15.179
X23.012 Y15.755
X22.628 Y16.321
X22.23 Y16.878
X21.818 Y17.425
X21.393 Y17.961
X20.955 Y18.487
X20.505 Y19.003
X20.041 Y19.506
X19.566 Y19.999
X19.078 Y20.479
X18.579 Y20.948
X18.069 Y21.403
X17.547 Y21.847
X17.015 Y22.277
X16.472 Y22.694
X15.919 Y23.097
X15.356 Y23.487
X14.784 Y23.863
X14.203 Y24.225
X13.613 Y24.572
X13.015 Y24.904
X12.409 Y25.222
X11.795 Y25.524
X11.174 Y25.812
X10.546 Y26.084
X9.911 Y26.341
X9.271 Y26.582
X8.625 Y26.808
X7.973 Y27.018
X7.316 Y27.211
X6.655 Y27.389
X5.99 Y27.55
X5.321 Y27.695
X4.649 Y27.823
X3.974 Y27.935
X3.296 Y28.031
X2.616 Y28.109
X1.934 Y28.171
X1.511 Y28.199
X1.48 Y28.2
X-0.933
X-1.617 Y28.166
X-2.301 Y28.152
X-2.984 Y28.108
X-3.665 Y28.041
X-4.344 Y27.953
X-5.02 Y27.848
X-5.694 Y27.724
X-6.363 Y27.584
X-7.03 Y27.427
X-7.692 Y27.254
X-8.35 Y27.065
X-9.003 Y26.86
X-9.651 Y26.639
X-10.293 Y26.402
X-10.929 Y26.15
X-11.559 Y25.882
X-12.182 Y25.599
X-12.799 Y25.302
X-13.407 Y24.989
X-14.008 Y24.661
X-14.601 Y24.319
X-15.185 Y23.962
X-15.761 Y23.592
X-16.327 Y23.208
X-16.884 Y22.81
X-17.431 Y22.399
X-17.969 Y21.974
X-18.495 Y21.537
X-19.011 Y21.087
X-19.516 Y20.625
X-20.009 Y20.151
X-20.491 Y19.664
X-20.961 Y19.166
X-21.418 Y18.657
X-21.863 Y18.137
X-22.296 Y17.607
X-22.715 Y17.066
X-23.122 Y16.515
X-23.514 Y15.955
X-23.894 Y15.385
X-24.259 Y14.806
X-24.61 Y14.219
X-24.947 Y13.623
X-25.269 Y13.019
X-25.577 Y12.408
X-25.87 Y11.789
X-26.147 Y11.163
X-26.41 Y10.531
X-26.657 Y9.893
X-26.889 Y9.249
X-27.106 Y8.6
X-27.306 Y7.945
X-27.491 Y7.286
X-27.66 Y6.623
X-27.812 Y5.956
X-27.948 Y5.285
X-28.068 Y4.611
X-28.172 Y3.934
X-28.194 Y3.764
X-28.197 Y3.734
X-28.199 Y3.704
X-28.2 Y3.674
Y-2.643
X-28.166 Y-3.327
X-28.122 Y-4.01
X-28.041 Y-4.69
X-27.933 Y-5.366
X-27.802 Y-6.038
X-27.652 Y-6.705
X-27.485 Y-7.369
X-27.301 Y-8.028
X-27.101 Y-8.683
X-26.885 Y-9.332
X-26.653 Y-9.976
X-26.406 Y-10.615
X-26.144 Y-11.247
X-25.866 Y-11.873
X-25.574 Y-12.491
X-25.267 Y-13.103
X-24.945 Y-13.707
X-24.608 Y-14.303
X-24.258 Y-14.891
X-23.893 Y-15.47
X-23.515 Y-16.041
X-23.123 Y-16.602
X-22.718 Y-17.153
X-22.299 Y-17.695
X-21.867 Y-18.226
X-21.423 Y-18.747
X-20.966 Y-19.256
X-20.496 Y-19.754
X-20.015 Y-20.241
X-19.523 Y-20.716
X-19.019 Y-21.18
X-18.504 Y-21.631
X-17.979 Y-22.069
X-17.443 Y-22.495
X-16.897 Y-22.908
X-16.341 Y-23.308
X-15.776 Y-23.694
X-15.202 Y-24.067
X-14.619 Y-24.426
X-14.028 Y-24.77
X-13.429 Y-25.101
X-12.821 Y-25.417
X-12.207 Y-25.718
X-11.585 Y-26.004
X-10.957 Y-26.276
X-10.322 Y-26.532
X-9.681 Y-26.773
X-9.035 Y-26.998
X-8.383 Y-27.207
X-7.727 Y-27.401
X-7.066 Y-27.578
X-6.401 Y-27.74
X-5.732 Y-27.885
X-5.06 Y-28.015
X-4.385 Y-28.128
X-3.932 Y-28.193
X-3.899 Y-28.197
X-3.866 Y-28.199
X-3.832 Y-28.2
X2.643
X3.327 Y-28.166
X4.011 Y-28.129
X4.691 Y-28.051
X5.367 Y-27.945
X6.039 Y-27.816
X6.707 Y-27.667
X7.371 Y-27.501
X8.03 Y-27.317
X8.685 Y-27.118
X9.335 Y-26.902
X9.979 Y-26.671
X10.618 Y-26.425
X11.25 Y-26.164
X11.876 Y-25.887
X12.496 Y-25.596
X13.108 Y-25.29
X13.713 Y-24.97
X14.31 Y-24.635
X14.899 Y-24.286
X15.479 Y-23.923
X16.05 Y-23.546
X16.613 Y-23.156
X17.166 Y-22.753
X17.709 Y-22.336
X18.243 Y-21.907
X18.766 Y-21.466
X19.278 Y-21.012
X19.779 Y-20.546
X20.27 Y-20.069
X20.749 Y-19.58
X21.216 Y-19.079
X21.671 Y-18.568
X22.114 Y-18.046
X22.544 Y-17.514
X22.962 Y-16.972
X23.367 Y-16.42
X23.758 Y-15.858
X24.137 Y-15.288
X24.501 Y-14.709
X24.852 Y-14.121
X25.189 Y-13.525
X25.512 Y-12.922
X25.82 Y-12.311
X26.114 Y-11.693
X26.393 Y-11.068
X26.658 Y-10.436
X26.907 Y-9.799
X27.142 Y-9.156
X27.361 Y-8.507
X27.565 Y-7.854
X27.753 Y-7.196
X27.926 Y-6.534
X28.083 Y-5.867
X28.185 Y-5.384
X28.193 Y-5.337
X28.198 Y-5.288
X28.2 Y-5.24
Y4.976
X28.166 Y5.66
X28.102 Y6.341
X27.989 Y7.016
X27.845 Y7.685
X27.676 Y8.348
X27.487 Y9.006
X27.279 Y9.659
X27.056 Y10.306
X26.816 Y10.947
X26.561 Y11.582
X26.291 Y12.211
X26.006 Y12.833
X25.706 Y13.448
X25.392 Y14.056
X25.063 Y14.657
X24.72 Y15.249
X24.364 Y15.833
X23.993 Y16.409
X23.609 Y16.976
X23.212 Y17.533
X22.802 Y18.081
X22.379 Y18.619
X21.943 Y19.147
X21.495 Y19.664
X21.035 Y20.171
X20.563 Y20.667
X20.079 Y21.151
X19.584 Y21.624
X19.078 Y22.085
X18.562 Y22.534
X18.035 Y22.97
X17.497 Y23.395
X16.95 Y23.806
X16.394 Y24.204
X15.828 Y24.589
X15.253 Y24.961
X14.67 Y25.319
X14.078 Y25.663
X13.478 Y25.993
X12.871 Y26.309
X12.257 Y26.61
X11.635 Y26.897
X11.007 Y27.17
X10.373 Y27.427
X9.733 Y27.67
X9.088 Y27.897
X8.437 Y28.109
X8.232 Y28.171
X8.166 Y28.187
X8.099 Y28.197
X8.031 Y28.2
X1.48
G3 X1.251 Y28.093 Z-7.153 I0. J-0.3
G1 X1.214 Y28.056 Z-7.131
X1.171 Y28.026 Z-7.108
X1.123 Y28.004 Z-7.086
X1.073 Y27.99 Z-7.064
X1.035 Y27.986
X0.8 Y27.975
X-0.012 Y27.937
X-0.07 Y27.94
X-0.127 Y27.954
X-0.179 Y27.979
G3 X-0.472 Y28.114 I-0.809 J-1.36
X-0.933 Y28.2 Z-7.264 I-0.517 J-1.496
G1 X-7.464
X-7.989 Y28.174
X-8.557 Y28.099
X-9.226 Y27.956
X-9.884 Y27.769
X-10.533 Y27.552
X-11.175 Y27.312
X-11.808 Y27.054
X-12.435 Y26.779
X-13.055 Y26.488
X-13.667 Y26.182
X-14.272 Y25.862
X-14.869 Y25.527
X-15.458 Y25.179
X-16.039 Y24.817
X-16.611 Y24.441
X-17.175 Y24.053
X-17.729 Y23.651
X-18.274 Y23.237
X-18.809 Y22.81
X-19.334 Y22.371
X-19.849 Y21.92
X-20.353 Y21.457
X-20.846 Y20.982
X-21.328 Y20.496
X-21.798 Y19.999
X-22.257 Y19.491
X-22.704 Y18.972
X-23.138 Y18.443
X-23.56 Y17.904
X-23.97 Y17.356
X-24.366 Y16.798
X-24.75 Y16.231
X-25.12 Y15.655
X-25.477 Y15.071
X-25.82 Y14.479
X-26.149 Y13.879
X-26.464 Y13.271
X-26.765 Y12.657
X-27.052 Y12.035
X-27.324 Y11.407
X-27.582 Y10.773
X-27.825 Y10.133
X-28.054 Y9.488
X-28.165 Y9.148
X-28.184 Y9.077
X-28.196 Y9.004
X-28.2 Y8.93
Y3.674
G0 Z5.
X-6.453 Y27.825
Z-6.664
G1 Z-6.964 F1500
X-6.459 Y27.829 Z-7.031
X-6.478 Y27.841 Z-7.094
X-6.509 Y27.859 Z-7.151
X-6.55 Y27.883 Z-7.199
X-6.598 Y27.912 Z-7.234
X-6.653 Y27.945 Z-7.256
X-6.71 Y27.979 Z-7.264
G3 X-7.464 Y28.2 I-0.809 J-1.36
G1 X-10.885
X-11.23 Y28.183
X-11.61 Y28.133
X-12.092 Y28.03
X-12.747 Y27.834
X-13.385 Y27.585
X-14.009 Y27.304
X-14.621 Y26.998
X-15.224 Y26.674
X-15.818 Y26.334
X-16.404 Y25.979
X-16.98 Y25.611
X-17.549 Y25.23
X-18.108 Y24.835
X-18.659 Y24.428
X-19.2 Y24.009
X-19.732 Y23.579
X-20.254 Y23.136
X-20.766 Y22.681
X-21.267 Y22.216
X-21.758 Y21.739
X-22.239 Y21.251
X-22.708 Y20.753
X-23.166 Y20.244
X-23.612 Y19.726
X-24.047 Y19.197
X-24.47 Y18.659
X-24.881 Y18.111
X-25.279 Y17.554
X-25.664 Y16.989
X-26.037 Y16.415
X-26.397 Y15.832
X-26.743 Y15.242
X-27.077 Y14.645
X-27.397 Y14.04
X-27.704 Y13.428
X-27.996 Y12.809
X-28.139 Y12.489
X-28.173 Y12.397
X-28.193 Y12.302
X-28.2 Y12.204
Y8.93
G0 Z5.
X-9.873 Y27.825
Z-6.664
G1 Z-6.964 F1500
X-9.88 Y27.829 Z-7.031
X-9.899 Y27.841 Z-7.094
X-9.93 Y27.859 Z-7.151
X-9.971 Y27.883 Z-7.199
X-10.019 Y27.912 Z-7.234
X-10.074 Y27.945 Z-7.256
X-10.131 Y27.979 Z-7.264
G3 X-10.885 Y28.2 I-0.809 J-1.36
G1 X-13.528
X-13.894 Y28.182
X-14.185 Y28.143
X-14.556 Y28.064
X-15.027 Y27.923
X-15.653 Y27.679
X-16.269 Y27.381
X-16.868 Y27.049
X-17.453 Y26.695
X-18.028 Y26.323
X-18.592 Y25.936
X-19.147 Y25.535
X-19.693 Y25.122
X-20.229 Y24.696
X-20.756 Y24.259
X-21.273 Y23.811
X-21.781 Y23.352
X-22.278 Y22.882
X-22.765 Y22.401
X-23.242 Y21.91
X-23.708 Y21.409
X-24.163 Y20.897
X-24.607 Y20.376
X-25.04 Y19.846
X-25.461 Y19.306
X-25.87 Y18.758
X-26.268 Y18.201
X-26.653 Y17.635
X-27.026 Y17.061
X-27.386 Y16.479
X-27.734 Y15.89
X-28.07 Y15.293
X-28.118 Y15.203
X-28.163 Y15.098
X-28.191 Y14.987
X-28.2 Y14.873
Y12.204
G0 Z5.
X-12.517 Y27.825
Z-6.664
G1 Z-6.964 F1500
X-12.523 Y27.829 Z-7.031
X-12.542 Y27.841 Z-7.094
X-12.573 Y27.859 Z-7.151
X-12.614 Y27.883 Z-7.199
X-12.663 Y27.912 Z-7.234
X-12.717 Y27.945 Z-7.256
X-12.775 Y27.979 Z-7.264
G3 X-13.528 Y28.2 I-0.809 J-1.36
G1 X-16.016
X-16.207 Y28.19
X-16.456 Y28.158
X-16.771 Y28.09
X-17.143 Y27.979
X-17.63 Y27.789
X-18.246 Y27.491
X-18.837 Y27.146
X-19.41 Y26.772
X-19.97 Y26.378
X-20.517 Y25.967
X-21.054 Y25.543
X-21.581 Y25.106
X-22.098 Y24.657
X-22.605 Y24.198
X-23.103 Y23.728
X-23.59 Y23.247
X-24.068 Y22.757
X-24.535 Y22.256
X-24.991 Y21.746
X-25.437 Y21.227
X-25.872 Y20.698
X-26.295 Y20.161
X-26.708 Y19.614
X-27.108 Y19.059
X-27.498 Y18.496
X-27.875 Y17.925
X-28.092 Y17.582
X-28.151 Y17.465
X-28.188 Y17.339
X-28.2 Y17.208
Y14.873
G0 Z5.
X-15.005 Y27.825
Z-6.664
G1 Z-6.964 F1500
X-15.011 Y27.829 Z-7.031
X-15.03 Y27.841 Z-7.094
X-15.061 Y27.859 Z-7.151
X-15.102 Y27.883 Z-7.199
X-15.151 Y27.912 Z-7.234
X-15.205 Y27.945 Z-7.256
X-15.263 Y27.979 Z-7.264
G3 X-16.016 Y28.2 I-0.809 J-1.36
G1 X-18.038
X-18.33 Y28.185
X-18.557 Y28.156
X-18.831 Y28.097
X-19.153 Y28.001
X-19.559 Y27.842
X-20.082 Y27.589
X-20.672 Y27.241
X-21.238 Y26.856
X-21.785 Y26.445
X-22.318 Y26.016
X-22.839 Y25.572
X-23.35 Y25.116
X-23.85 Y24.648
X-24.339 Y24.17
X-24.819 Y23.682
X-25.288 Y23.184
X-25.748 Y22.676
X-26.196 Y22.159
X-26.635 Y21.634
X-27.062 Y21.099
X-27.479 Y20.556
X-27.885 Y20.005
X-28.072 Y19.74
X-28.142 Y19.616
X-28.185 Y19.479
X-28.2 Y19.337
Y17.208
G3 X-27.89 Y16.919 Z-7.064 I0.3 J0.01
G1 X-27.832 Y16.927
X-27.776 Y16.946
X-27.725 Y16.975
X-27.681 Y17.014
X-27.655 Y17.042
X-17.306 Y28.133
X-17.276 Y28.155
X-17.24 Y28.164
X-17.203 Y28.16
X-17.17 Y28.142
X-17.146 Y28.114
X-17.134 Y28.079
X-17.136 Y28.042
X-17.151 Y28.008
X-17.178 Y27.981
X-17.212 Y27.967
X-17.249 Y27.966
X-17.284 Y27.979
G3 X-17.576 Y28.114 I-0.809 J-1.36
X-18.038 Y28.2 Z-7.264 I-0.517 J-1.496
G1 X-20.059
X-20.294 Y28.188
X-20.508 Y28.16
X-20.753 Y28.108
X-21.044 Y28.021
X-21.401 Y27.882
X-21.849 Y27.664
X-22.419 Y27.328
X-22.98 Y26.935
X-23.517 Y26.511
X-24.038 Y26.067
X-24.545 Y25.607
X-25.04 Y25.134
X-25.524 Y24.65
X-25.997 Y24.156
X-26.46 Y23.652
X-26.913 Y23.139
X-27.356 Y22.617
X-27.789 Y22.086
X-28.051 Y21.751
X-28.132 Y21.62
X-28.183 Y21.473
X-28.2 Y21.32
Y19.337
G0 Z5.
X-19.048 Y27.825
Z-6.664
G1 Z-6.964 F1500
X-19.054 Y27.829 Z-7.031
X-19.073 Y27.841 Z-7.094
X-19.104 Y27.859 Z-7.151
X-19.145 Y27.883 Z-7.199
X-19.194 Y27.912 Z-7.234
X-19.248 Y27.945 Z-7.256
X-19.306 Y27.979 Z-7.264
G3 X-20.059 Y28.2 I-0.809 J-1.36
G1 X-21.925
X-22.157 Y28.188
X-22.363 Y28.161
X-22.583 Y28.114
X-22.852 Y28.034
X-23.172 Y27.909
X-23.565 Y27.718
X-24.05 Y27.433
X-24.61 Y27.04
X-25.142 Y26.609
X-25.653 Y26.154
X-26.148 Y25.682
X-26.63 Y25.196
X-27.101 Y24.699
X-27.561 Y24.192
X-28.01 Y23.675
X-28.037 Y23.642
X-28.126 Y23.507
X-28.181 Y23.354
X-28.2 Y23.193
Y21.32
G0 Z5.
X-20.914 Y27.825
Z-6.664
G1 Z-6.964 F1500
X-20.92 Y27.829 Z-7.031
X-20.939 Y27.841 Z-7.094
X-20.97 Y27.859 Z-7.151
X-21.011 Y27.883 Z-7.199
X-21.06 Y27.912 Z-7.234
X-21.114 Y27.945 Z-7.256
X-21.172 Y27.979 Z-7.264
G3 X-21.925 Y28.2 I-0.809 J-1.36
G1 X-23.791
X-23.941 Y28.192
X-24.128 Y28.167
X-24.341 Y28.12
X-24.604 Y28.04
X-24.893 Y27.926
X-25.26 Y27.745
X-25.692 Y27.488
X-26.25 Y27.092
X-26.775 Y26.653
X-27.276 Y26.187
X-27.76 Y25.702
X-28.01 Y25.437
X-28.113 Y25.295
X-28.178 Y25.132
X-28.2 Y24.957
G3 X-27.89 Y24.668 Z-7.064 I0.3 J0.01
G1 X-27.832 Y24.676
X-27.776 Y24.695
X-27.726 Y24.724
X-27.646 Y24.781
X-23.627 Y27.656
G3 X-23.502 Y27.89 I-0.175 J0.244
X-23.791 Y28.2 Z-7.264 I-0.3 J0.01
G1 X-25.502
X-25.652 Y28.192
X-25.824 Y28.169
X-26.027 Y28.125
X-26.276 Y28.049
X-26.544 Y27.944
X-26.881 Y27.778
X-27.268 Y27.548
X-27.768 Y27.194
X-27.949 Y27.042
X-28.085 Y26.89
X-28.171 Y26.706
X-28.2 Y26.505
G3 X-27.89 Y26.216 Z-7.064 I0.3 J0.01
G1 X-27.841 Y26.222
X-27.794 Y26.235
X-27.75 Y26.256
X-27.64 Y26.32
X-25.362 Y27.641
G3 X-25.212 Y27.89 I-0.15 J0.26
X-25.502 Y28.2 Z-7.264 I-0.3 J0.01
G1 X-27.057
X-27.294 Y28.188
X-27.458 Y28.167
X-27.611 Y28.134
X-27.701 Y28.107
X-27.902 Y28.01
X-28.062 Y27.854
X-28.164 Y27.657
X-28.2 Y27.436
G3 X-27.89 Y27.147 Z-7.064 I0.3 J0.01
G1 X-27.844 Y27.152
X-27.799 Y27.164
X-27.757 Y27.183
X-27.639 Y27.248
X-26.924 Y27.637
G3 X-26.767 Y27.89 I-0.143 J0.264
X-27.057 Y28.2 Z-7.264 I-0.3 J0.01
G1 X-27.834
X-27.912 Y28.199
X-27.951 Y28.194
X-27.99 Y28.183
X-28.026 Y28.167
X-28.062 Y28.145
X-28.104 Y28.11
X-28.145 Y28.062
X-28.167 Y28.026
X-28.183 Y27.99
X-28.194 Y27.951
X-28.199 Y27.912
X-28.2 Y27.834
Y23.193
G0 Z5.
X27.825 Y3.965
Z-6.664
G1 Z-6.964 F1500
X27.829 Y3.971 Z-7.031
X27.841 Y3.99 Z-7.094
X27.859 Y4.021 Z-7.151
X27.883 Y4.062 Z-7.199
X27.912 Y4.111 Z-7.234
X27.945 Y4.165 Z-7.256
X27.979 Y4.222 Z-7.264
G3 X28.2 Y4.976 I-1.36 J0.809
G1 Y9.33
X28.176 Y9.812
X28.116 Y10.271
X27.983 Y10.891
X27.787 Y11.547
X27.552 Y12.19
X27.292 Y12.823
X27.011 Y13.447
X26.712 Y14.063
X26.398 Y14.671
X26.069 Y15.271
X25.727 Y15.864
X25.371 Y16.448
X25.001 Y17.025
X24.619 Y17.592
X24.223 Y18.151
X23.815 Y18.7
X23.394 Y19.24
X22.961 Y19.77
X22.516 Y20.29
X22.06 Y20.8
X21.592 Y21.3
X21.112 Y21.788
X20.622 Y22.266
X20.121 Y22.733
X19.61 Y23.188
X19.089 Y23.631
X18.557 Y24.063
X18.016 Y24.482
X17.466 Y24.889
X16.907 Y25.283
X16.339 Y25.665
X15.762 Y26.034
X15.177 Y26.39
X14.584 Y26.732
X13.984 Y27.061
X13.377 Y27.376
X12.762 Y27.677
X12.141 Y27.965
X11.735 Y28.142
X11.644 Y28.174
X11.551 Y28.193
X11.455 Y28.2
X8.031
G0 Z5.
X27.825 Y8.318
Z-6.664
G1 Z-6.964 F1500
X27.829 Y8.325 Z-7.031
X27.841 Y8.344 Z-7.094
X27.859 Y8.375 Z-7.151
X27.883 Y8.416 Z-7.199
X27.912 Y8.464 Z-7.234
X27.945 Y8.519 Z-7.256
X27.979 Y8.576 Z-7.264
G3 X28.2 Y9.33 I-1.36 J0.809
G1 Y12.44
X28.185 Y12.748
X28.141 Y13.084
X28.05 Y13.508
X27.881 Y14.071
X27.633 Y14.709
X27.344 Y15.329
X27.027 Y15.936
X26.691 Y16.532
X26.338 Y17.118
X25.97 Y17.695
X25.588 Y18.264
X25.194 Y18.823
X24.787 Y19.373
X24.367 Y19.914
X23.936 Y20.446
X23.493 Y20.967
X23.039 Y21.479
X22.573 Y21.981
X22.097 Y22.473
X21.61 Y22.954
X21.113 Y23.425
X20.606 Y23.884
X20.089 Y24.332
X19.562 Y24.77
X19.026 Y25.195
X18.48 Y25.609
X17.926 Y26.011
X17.364 Y26.4
X16.792 Y26.778
X16.213 Y27.142
X15.626 Y27.494
X15.032 Y27.834
X14.513 Y28.115
X14.407 Y28.162
X14.294 Y28.19
X14.179 Y28.2
X11.455
G0 Z5.
X27.825 Y11.428
Z-6.664
G1 Z-6.964 F1500
X27.829 Y11.435 Z-7.031
X27.841 Y11.454 Z-7.094
X27.859 Y11.485 Z-7.151
X27.883 Y11.526 Z-7.199
X27.912 Y11.574 Z-7.234
X27.945 Y11.629 Z-7.256
X27.979 Y11.686 Z-7.264
G3 X28.2 Y12.44 I-1.36 J0.809
G1 Y14.928
X28.184 Y15.254
X28.148 Y15.527
X28.074 Y15.872
X27.947 Y16.297
X27.729 Y16.856
X27.43 Y17.471
X27.094 Y18.067
X26.732 Y18.648
X26.35 Y19.217
X25.954 Y19.774
X25.543 Y20.322
X25.12 Y20.86
X24.685 Y21.388
X24.239 Y21.907
X23.781 Y22.417
X23.313 Y22.916
X22.835 Y23.405
X22.346 Y23.885
X21.848 Y24.354
X21.339 Y24.812
X20.822 Y25.26
X20.295 Y25.697
X19.759 Y26.122
X19.214 Y26.537
X18.66 Y26.939
X18.099 Y27.33
X17.529 Y27.709
X16.951 Y28.076
X16.914 Y28.099
X16.8 Y28.154
X16.677 Y28.188
X16.551 Y28.2
X14.179
G0 Z5.
X27.825 Y13.916
Z-6.664
G1 Z-6.964 F1500
X27.829 Y13.923 Z-7.031
X27.841 Y13.942 Z-7.094
X27.859 Y13.973 Z-7.151
X27.883 Y14.014 Z-7.199
X27.912 Y14.062 Z-7.234
X27.945 Y14.117 Z-7.256
X27.979 Y14.174 Z-7.264
G3 X28.2 Y14.928 I-1.36 J0.809
G1 Y17.26
X28.189 Y17.479
X28.158 Y17.719
X28.094 Y18.016
X27.989 Y18.366
X27.814 Y18.816
X27.527 Y19.407
X27.18 Y19.997
X26.8 Y20.566
X26.399 Y21.12
X25.98 Y21.662
X25.547 Y22.192
X25.102 Y22.712
X24.645 Y23.222
X24.178 Y23.722
X23.7 Y24.212
X23.213 Y24.692
X22.715 Y25.163
X22.208 Y25.622
X21.692 Y26.072
X21.167 Y26.511
X20.633 Y26.939
X20.091 Y27.357
X19.54 Y27.763
X19.103 Y28.072
X18.978 Y28.142
X18.842 Y28.185
X18.699 Y28.2
X16.551
G0 Z5.
X27.825 Y16.249
Z-6.664
G1 Z-6.964 F1500
X27.829 Y16.255 Z-7.031
X27.841 Y16.274 Z-7.094
X27.859 Y16.305 Z-7.151
X27.883 Y16.346 Z-7.199
X27.912 Y16.395 Z-7.234
X27.945 Y16.449 Z-7.256
X27.979 Y16.507 Z-7.264
G3 X28.2 Y17.26 I-1.36 J0.809
G1 Y19.282
X28.187 Y19.534
X28.158 Y19.754
X28.102 Y20.017
X28.01 Y20.325
X27.86 Y20.709
X27.623 Y21.198
X27.276 Y21.788
X26.886 Y22.351
X26.47 Y22.894
X26.034 Y23.422
X25.583 Y23.937
X25.12 Y24.441
X24.646 Y24.935
X24.161 Y25.418
X23.667 Y25.891
X23.163 Y26.355
X22.65 Y26.808
X22.128 Y27.251
X21.598 Y27.683
X21.128 Y28.051
X20.997 Y28.132
X20.85 Y28.183
X20.697 Y28.2
X18.699
G0 Z5.
X27.825 Y18.27
Z-6.664
G1 Z-6.964 F1500
X27.829 Y18.277 Z-7.031
X27.841 Y18.296 Z-7.094
X27.859 Y18.327 Z-7.151
X27.883 Y18.367 Z-7.199
X27.912 Y18.416 Z-7.234
X27.945 Y18.471 Z-7.256
X27.979 Y18.528 Z-7.264
G3 X28.2 Y19.282 I-1.36 J0.809
G1 Y21.303
X28.192 Y21.453
X28.164 Y21.664
X28.113 Y21.901
X28.028 Y22.183
X27.894 Y22.526
X27.687 Y22.952
X27.37 Y23.487
X26.976 Y24.046
X26.549 Y24.581
X26.1 Y25.098
X25.635 Y25.6
X25.157 Y26.09
X24.667 Y26.568
X24.168 Y27.037
X23.66 Y27.495
X23.142 Y27.943
X23.028 Y28.038
X22.892 Y28.126
X22.74 Y28.181
X22.58 Y28.2
X20.697
G0 Z5.
X27.825 Y20.292
Z-6.664
G1 Z-6.964 F1500
X27.829 Y20.298 Z-7.031
X27.841 Y20.317 Z-7.094
X27.859 Y20.348 Z-7.151
X27.883 Y20.389 Z-7.199
X27.912 Y20.438 Z-7.234
X27.945 Y20.492 Z-7.256
X27.979 Y20.55 Z-7.264
G3 X28.2 Y21.303 I-1.36 J0.809
G1 Y23.099
X28.191 Y23.279
X28.165 Y23.479
X28.119 Y23.693
X28.04 Y23.957
X27.92 Y24.264
X27.737 Y24.643
X27.466 Y25.102
X27.073 Y25.662
X26.639 Y26.192
X26.181 Y26.7
X25.704 Y27.191
X25.214 Y27.669
X24.843 Y28.013
X24.702 Y28.115
X24.54 Y28.178
X24.367 Y28.2
G3 X24.077 Y27.89 Z-7.064 I0.01 J-0.3
G1 X24.085 Y27.831
X24.105 Y27.774
X24.136 Y27.722
X24.191 Y27.647
X27.657 Y22.934
X27.659 Y22.932
G3 X27.89 Y22.81 I0.242 J0.178
X28.2 Y23.099 Z-7.264 I0.01 J0.3
G1 Y24.88
X28.192 Y25.03
X28.169 Y25.208
X28.125 Y25.415
X28.048 Y25.67
X27.94 Y25.947
X27.77 Y26.298
X27.531 Y26.705
X27.158 Y27.236
X26.72 Y27.763
X26.521 Y27.977
X26.373 Y28.098
X26.198 Y28.174
X26.009 Y28.2
G3 X25.719 Y27.89 Z-7.064 I0.01 J-0.3
G1 X25.726 Y27.838
X25.741 Y27.788
X25.765 Y27.741
X25.826 Y27.643
X27.646 Y24.731
G3 X27.89 Y24.59 I0.254 J0.159
X28.2 Y24.88 Z-7.264 I0.01 J0.3
G1 Y26.59
X28.192 Y26.74
X28.167 Y26.914
X28.118 Y27.126
X28.041 Y27.368
X27.935 Y27.63
X27.82 Y27.857
X27.816 Y27.864
X27.704 Y28.004
X27.561 Y28.11
X27.395 Y28.177
X27.218 Y28.2
G3 X26.929 Y27.89 Z-7.064 I0.01 J-0.3
G1 X26.938 Y27.824
X26.962 Y27.762
X27.027 Y27.637
X27.634 Y26.463
G3 X27.89 Y26.301 I0.267 J0.138
X28.2 Y26.59 Z-7.264 I0.01 J0.3
G1 Y27.834
X28.199 Y27.912
X28.194 Y27.951
X28.183 Y27.99
X28.167 Y28.026
X28.145 Y28.062
X28.104 Y28.11
X28.062 Y28.145
X28.026 Y28.167
X27.99 Y28.183
X27.951 Y28.194
X27.912 Y28.199
X27.834 Y28.2
X22.58
G0 Z5.
X-27.825 Y-1.632
Z-6.664
G1 Z-6.964 F1500
X-27.829 Y-1.639 Z-7.031
X-27.841 Y-1.658 Z-7.094
X-27.859 Y-1.688 Z-7.151
X-27.883 Y-1.729 Z-7.199
X-27.912 Y-1.778 Z-7.234
X-27.945 Y-1.833 Z-7.256
X-27.979 Y-1.89 Z-7.264
G3 X-28.2 Y-2.643 I1.36 J-0.809
G1 Y-7.775
X-28.169 Y-8.404
X-28.1 Y-8.925
X-27.957 Y-9.594
X-27.764 Y-10.251
X-27.539 Y-10.897
X-27.29 Y-11.535
X-27.022 Y-12.165
X-26.737 Y-12.787
X-26.436 Y-13.402
X-26.121 Y-14.009
X-25.791 Y-14.609
X-25.448 Y-15.201
X-25.09 Y-15.785
X-24.72 Y-16.36
X-24.336 Y-16.927
X-23.939 Y-17.485
X-23.529 Y-18.033
X-23.107 Y-18.572
X-22.672 Y-19.1
X-22.225 Y-19.619
X-21.767 Y-20.127
X-21.296 Y-20.624
X-20.814 Y-21.11
X-20.321 Y-21.585
X-19.818 Y-22.048
X-19.304 Y-22.5
X-18.779 Y-22.94
X-18.245 Y-23.367
X-17.7 Y-23.782
X-17.146 Y-24.184
X-16.583 Y-24.574
X-16.012 Y-24.95
X-15.431 Y-25.313
X-14.843 Y-25.663
X-14.247 Y-25.999
X-13.643 Y-26.321
X-13.031 Y-26.629
X-12.413 Y-26.923
X-11.789 Y-27.203
X-11.158 Y-27.468
X-10.521 Y-27.718
X-9.878 Y-27.954
X-9.266 Y-28.163
X-9.192 Y-28.183
X-9.117 Y-28.196
X-9.04 Y-28.2
X-3.832
G0 Z5.
X-27.825 Y-6.764
Z-6.664
G1 Z-6.964 F1500
X-27.829 Y-6.77 Z-7.031
X-27.841 Y-6.789 Z-7.094
X-27.859 Y-6.82 Z-7.151
X-27.883 Y-6.861 Z-7.199
X-27.912 Y-6.909 Z-7.234
X-27.945 Y-6.964 Z-7.256
X-27.979 Y-7.021 Z-7.264
G3 X-28.2 Y-7.775 I1.36 J-0.809
G1 Y-11.196
X-28.185 Y-11.5
X-28.137 Y-11.863
X-28.04 Y-12.318
X-27.855 Y-12.936
X-27.606 Y-13.573
X-27.322 Y-14.196
X-27.013 Y-14.807
X-26.684 Y-15.407
X-26.34 Y-15.998
X-25.98 Y-16.581
X-25.607 Y-17.155
X-25.221 Y-17.72
X-24.822 Y-18.276
X-24.41 Y-18.823
X-23.987 Y-19.361
X-23.551 Y-19.889
X-23.104 Y-20.407
X-22.646 Y-20.915
X-22.176 Y-21.413
X-21.695 Y-21.9
X-21.204 Y-22.376
X-20.702 Y-22.842
X-20.189 Y-23.296
X-19.667 Y-23.738
X-19.135 Y-24.169
X-18.594 Y-24.587
X-18.043 Y-24.994
X-17.483 Y-25.388
X-16.915 Y-25.77
X-16.339 Y-26.139
X-15.755 Y-26.495
X-15.163 Y-26.839
X-14.563 Y-27.169
X-13.956 Y-27.486
X-13.343 Y-27.789
X-12.722 Y-28.079
X-12.582 Y-28.141
X-12.491 Y-28.173
X-12.396 Y-28.193
X-12.3 Y-28.2
X-9.04
G0 Z5.
X-27.825 Y-10.184
Z-6.664
G1 Z-6.964 F1500
X-27.829 Y-10.191 Z-7.031
X-27.841 Y-10.21 Z-7.094
X-27.859 Y-10.241 Z-7.151
X-27.883 Y-10.282 Z-7.199
X-27.912 Y-10.33 Z-7.234
X-27.945 Y-10.385 Z-7.256
X-27.979 Y-10.442 Z-7.264
G3 X-28.2 Y-11.196 I1.36 J-0.809
G1 Y-13.839
X-28.187 Y-14.095
X-28.15 Y-14.379
X-28.073 Y-14.74
X-27.937 Y-15.194
X-27.703 Y-15.794
X-27.404 Y-16.41
X-27.071 Y-17.007
X-26.714 Y-17.591
X-26.339 Y-18.164
X-25.948 Y-18.726
X-25.544 Y-19.278
X-25.127 Y-19.821
X-24.698 Y-20.355
X-24.258 Y-20.879
X-23.806 Y-21.393
X-23.344 Y-21.897
X-22.87 Y-22.392
X-22.386 Y-22.876
X-21.892 Y-23.349
X-21.388 Y-23.812
X-20.874 Y-24.264
X-20.35 Y-24.705
X-19.817 Y-25.134
X-19.275 Y-25.552
X-18.725 Y-25.959
X-18.165 Y-26.353
X-17.598 Y-26.736
X-17.022 Y-27.106
X-16.438 Y-27.464
X-15.847 Y-27.809
X-15.302 Y-28.112
X-15.195 Y-28.16
X-15.08 Y-28.19
X-14.962 Y-28.2
X-12.3
G0 Z5.
X-27.825 Y-12.828
Z-6.664
G1 Z-6.964 F1500
X-27.829 Y-12.834 Z-7.031
X-27.841 Y-12.853 Z-7.094
X-27.859 Y-12.884 Z-7.151
X-27.883 Y-12.925 Z-7.199
X-27.912 Y-12.974 Z-7.234
X-27.945 Y-13.028 Z-7.256
X-27.979 Y-13.086 Z-7.264
G3 X-28.2 Y-13.839 I1.36 J-0.809
G1 Y-16.172
X-28.189 Y-16.384
X-28.157 Y-16.63
X-28.091 Y-16.937
X-27.982 Y-17.302
X-27.799 Y-17.773
X-27.5 Y-18.389
X-27.153 Y-18.979
X-26.777 Y-19.551
X-26.379 Y-20.108
X-25.965 Y-20.653
X-25.537 Y-21.187
X-25.097 Y-21.711
X-24.645 Y-22.225
X-24.182 Y-22.73
X-23.709 Y-23.224
X-23.225 Y-23.709
X-22.732 Y-24.183
X-22.228 Y-24.647
X-21.716 Y-25.1
X-21.193 Y-25.542
X-20.662 Y-25.974
X-20.122 Y-26.394
X-19.573 Y-26.803
X-19.016 Y-27.201
X-18.451 Y-27.588
X-17.878 Y-27.962
X-17.668 Y-28.094
X-17.551 Y-28.152
X-17.426 Y-28.188
X-17.297 Y-28.2
X-14.962
G0 Z5.
X-27.825 Y-15.16
Z-6.664
G1 Z-6.964 F1500
X-27.829 Y-15.167 Z-7.031
X-27.841 Y-15.186 Z-7.094
X-27.859 Y-15.217 Z-7.151
X-27.883 Y-15.258 Z-7.199
X-27.912 Y-15.306 Z-7.234
X-27.945 Y-15.361 Z-7.256
X-27.979 Y-15.418 Z-7.264
G3 X-28.2 Y-16.172 I1.36 J-0.809
G1 Y-18.193
X-28.186 Y-18.481
X-28.156 Y-18.705
X-28.098 Y-18.976
X-28.004 Y-19.291
X-27.849 Y-19.689
X-27.602 Y-20.199
X-27.254 Y-20.789
X-26.867 Y-21.353
X-26.454 Y-21.899
X-26.023 Y-22.43
X-25.576 Y-22.949
X-25.117 Y-23.457
X-24.647 Y-23.954
X-24.166 Y-24.441
X-23.675 Y-24.918
X-23.174 Y-25.385
X-22.664 Y-25.841
X-22.145 Y-26.287
X-21.617 Y-26.723
X-21.081 Y-27.148
X-20.536 Y-27.562
X-19.983 Y-27.965
X-19.828 Y-28.074
X-19.704 Y-28.143
X-19.568 Y-28.186
X-19.427 Y-28.2
X-17.297
G3 X-17.007 Y-27.89 Z-7.064 I-0.01 J0.3
G1 X-17.015 Y-27.831
X-17.034 Y-27.775
X-17.064 Y-27.724
X-17.103 Y-27.68
X-17.13 Y-27.655
X-28.133 Y-17.462
X-28.155 Y-17.432
X-28.164 Y-17.396
X-28.16 Y-17.359
X-28.143 Y-17.326
X-28.114 Y-17.302
X-28.079 Y-17.29
X-28.042 Y-17.291
X-28.008 Y-17.307
X-27.981 Y-17.333
X-27.967 Y-17.367
X-27.966 Y-17.405
X-27.979 Y-17.44
G3 X-28.114 Y-17.732 I1.36 J-0.809
X-28.2 Y-18.193 Z-7.264 I1.496 J-0.517
G1 Y-20.215
X-28.189 Y-20.426
X-28.162 Y-20.638
X-28.11 Y-20.88
X-28.024 Y-21.167
X-27.887 Y-21.518
X-27.675 Y-21.956
X-27.348 Y-22.51
X-26.955 Y-23.071
X-26.53 Y-23.607
X-26.084 Y-24.126
X-25.622 Y-24.631
X-25.147 Y-25.124
X-24.661 Y-25.606
X-24.165 Y-26.077
X-23.659 Y-26.538
X-23.144 Y-26.989
X-22.62 Y-27.43
X-22.088 Y-27.86
X-21.84 Y-28.053
X-21.709 Y-28.133
X-21.563 Y-28.183
X-21.41 Y-28.2
X-19.427
G0 Z5.
X-27.825 Y-19.203
Z-6.664
G1 Z-6.964 F1500
X-27.829 Y-19.21 Z-7.031
X-27.841 Y-19.229 Z-7.094
X-27.859 Y-19.26 Z-7.151
X-27.883 Y-19.3 Z-7.199
X-27.912 Y-19.349 Z-7.234
X-27.945 Y-19.404 Z-7.256
X-27.979 Y-19.461 Z-7.264
G3 X-28.2 Y-20.215 I1.36 J-0.809
G1 Y-22.081
X-28.19 Y-22.274
X-28.164 Y-22.478
X-28.117 Y-22.695
X-28.037 Y-22.963
X-27.915 Y-23.277
X-27.726 Y-23.665
X-27.448 Y-24.138
X-27.054 Y-24.698
X-26.622 Y-25.229
X-26.166 Y-25.739
X-25.692 Y-26.233
X-25.204 Y-26.713
X-24.705 Y-27.182
X-24.196 Y-27.639
X-23.742 Y-28.03
X-23.605 Y-28.123
X-23.45 Y-28.18
X-23.285 Y-28.2
X-21.41
G0 Z5.
X-27.825 Y-21.069
Z-6.664
G1 Z-6.964 F1500
X-27.829 Y-21.076 Z-7.031
X-27.841 Y-21.095 Z-7.094
X-27.859 Y-21.126 Z-7.151
X-27.883 Y-21.166 Z-7.199
X-27.912 Y-21.215 Z-7.234
X-27.945 Y-21.27 Z-7.256
X-27.979 Y-21.327 Z-7.264
G3 X-28.2 Y-22.081 I1.36 J-0.809
G1 Y-23.791
X-28.187 Y-24.047
X-28.163 Y-24.229
X-28.119 Y-24.438
X-28.042 Y-24.695
X-27.932 Y-24.977
X-27.759 Y-25.334
X-27.514 Y-25.75
X-27.13 Y-26.296
X-26.693 Y-26.822
X-26.228 Y-27.324
X-25.743 Y-27.808
X-25.527 Y-28.01
X-25.385 Y-28.113
X-25.222 Y-28.178
X-25.048 Y-28.2
G3 X-24.759 Y-27.89 Z-7.064 I-0.01 J0.3
G1 X-24.766 Y-27.833
X-24.784 Y-27.779
X-24.812 Y-27.729
X-24.87 Y-27.645
X-27.654 Y-23.631
G3 X-27.89 Y-23.502 I-0.247 J-0.171
X-28.2 Y-23.791 Z-7.264 I-0.01 J-0.3
G1 Y-25.502
X-28.188 Y-25.746
X-28.166 Y-25.914
X-28.122 Y-26.117
X-28.049 Y-26.362
X-27.947 Y-26.624
X-27.786 Y-26.956
X-27.564 Y-27.333
X-27.226 Y-27.814
X-27.115 Y-27.947
X-26.964 Y-28.083
X-26.779 Y-28.17
X-26.577 Y-28.2
G3 X-26.288 Y-27.89 Z-7.064 I-0.01 J0.3
G1 X-26.293 Y-27.843
X-26.305 Y-27.798
X-26.324 Y-27.756
X-26.389 Y-27.639
X-27.637 Y-25.368
G3 X-27.89 Y-25.212 I-0.263 J-0.145
X-28.2 Y-25.502 Z-7.264 I-0.01 J-0.3
G1 Y-27.212
X-28.192 Y-27.374
X-28.172 Y-27.526
X-28.141 Y-27.672
X-28.132 Y-27.702
X-28.034 Y-27.902
X-27.879 Y-28.062
X-27.681 Y-28.165
X-27.462 Y-28.2
G3 X-27.172 Y-27.89 Z-7.064 I-0.01 J0.3
G1 X-27.179 Y-27.837
X-27.194 Y-27.787
X-27.218 Y-27.74
X-27.28 Y-27.643
X-27.647 Y-27.062
G3 X-27.89 Y-26.923 I-0.254 J-0.16
X-28.2 Y-27.212 Z-7.264 I-0.01 J-0.3
G1 Y-27.834
X-28.199 Y-27.912
X-28.194 Y-27.951
X-28.183 Y-27.99
X-28.167 Y-28.026
X-28.145 Y-28.062
X-28.104 Y-28.11
X-28.062 Y-28.145
X-28.026 Y-28.167
X-27.99 Y-28.183
X-27.951 Y-28.194
X-27.912 Y-28.199
X-27.834 Y-28.2
X-23.285
G0 Z5.
X1.632 Y-27.825
Z-6.664
G1 Z-6.964 F1500
X1.639 Y-27.829 Z-7.031
X1.658 Y-27.841 Z-7.094
X1.688 Y-27.859 Z-7.151
X1.729 Y-27.883 Z-7.199
X1.778 Y-27.912 Z-7.234
X1.833 Y-27.945 Z-7.256
X1.89 Y-27.979 Z-7.264
G3 X2.643 Y-28.2 I0.809 J1.36
G1 X7.93
X8.437 Y-28.175
X8.961 Y-28.106
X9.63 Y-27.963
X10.287 Y-27.77
X10.934 Y-27.545
X11.571 Y-27.296
X12.201 Y-27.028
X12.824 Y-26.744
X13.439 Y-26.444
X14.046 Y-26.129
X14.647 Y-25.8
X15.239 Y-25.457
X15.823 Y-25.1
X16.399 Y-24.73
X16.967 Y-24.348
X17.525 Y-23.952
X18.075 Y-23.544
X18.615 Y-23.123
X19.145 Y-22.691
X19.665 Y-22.246
X20.176 Y-21.79
X20.675 Y-21.322
X21.164 Y-20.843
X21.642 Y-20.352
X22.108 Y-19.852
X22.563 Y-19.34
X23.006 Y-18.819
X23.438 Y-18.287
X23.857 Y-17.746
X24.263 Y-17.195
X24.657 Y-16.635
X25.038 Y-16.067
X25.406 Y-15.49
X25.761 Y-14.904
X26.102 Y-14.311
X26.43 Y-13.71
X26.744 Y-13.102
X27.045 Y-12.487
X27.331 Y-11.865
X27.603 Y-11.237
X27.861 Y-10.603
X28.104 Y-9.964
X28.16 Y-9.807
X28.182 Y-9.731
X28.195 Y-9.652
X28.2 Y-9.573
Y-5.24
G0 Z5.
X6.919 Y-27.825
Z-6.664
G1 Z-6.964 F1500
X6.925 Y-27.829 Z-7.031
X6.945 Y-27.841 Z-7.094
X6.975 Y-27.859 Z-7.151
X7.016 Y-27.883 Z-7.199
X7.065 Y-27.912 Z-7.234
X7.119 Y-27.945 Z-7.256
X7.177 Y-27.979 Z-7.264
G3 X7.93 Y-28.2 I0.809 J1.36
G1 X11.196
X11.557 Y-28.182
X11.92 Y-28.134
X12.375 Y-28.037
X12.992 Y-27.852
X13.63 Y-27.604
X14.253 Y-27.32
X14.863 Y-27.01
X15.464 Y-26.682
X16.055 Y-26.337
X16.638 Y-25.978
X17.212 Y-25.606
X17.778 Y-25.22
X18.334 Y-24.822
X18.882 Y-24.412
X19.421 Y-23.99
X19.95 Y-23.556
X20.47 Y-23.111
X20.98 Y-22.654
X21.48 Y-22.186
X21.969 Y-21.708
X22.448 Y-21.219
X22.916 Y-20.719
X23.373 Y-20.209
X23.818 Y-19.69
X24.252 Y-19.16
X24.674 Y-18.621
X25.084 Y-18.073
X25.482 Y-17.517
X25.868 Y-16.951
X26.242 Y-16.378
X26.603 Y-15.796
X26.951 Y-15.207
X27.286 Y-14.61
X27.608 Y-14.006
X27.916 Y-13.395
X28.131 Y-12.945
X28.169 Y-12.848
X28.192 Y-12.747
X28.2 Y-12.643
Y-9.573
G0 Z5.
X10.184 Y-27.825
Z-6.664
G1 Z-6.964 F1500
X10.191 Y-27.829 Z-7.031
X10.21 Y-27.841 Z-7.094
X10.241 Y-27.859 Z-7.151
X10.282 Y-27.883 Z-7.199
X10.33 Y-27.912 Z-7.234
X10.385 Y-27.945 Z-7.256
X10.442 Y-27.979 Z-7.264
G3 X11.196 Y-28.2 I0.809 J1.36
G1 X13.839
X14.152 Y-28.184
X14.437 Y-28.147
X14.798 Y-28.07
X15.252 Y-27.934
X15.854 Y-27.699
X16.47 Y-27.4
X17.068 Y-27.067
X17.652 Y-26.711
X18.225 Y-26.336
X18.788 Y-25.946
X19.341 Y-25.543
X19.885 Y-25.127
X20.419 Y-24.7
X20.944 Y-24.261
X21.46 Y-23.811
X21.966 Y-23.35
X22.463 Y-22.879
X22.949 Y-22.397
X23.425 Y-21.905
X23.89 Y-21.403
X24.345 Y-20.891
X24.788 Y-20.37
X25.221 Y-19.84
X25.642 Y-19.3
X26.052 Y-18.752
X26.45 Y-18.195
X26.836 Y-17.63
X27.211 Y-17.057
X27.573 Y-16.476
X27.922 Y-15.888
X28.109 Y-15.558
X28.159 Y-15.449
X28.19 Y-15.333
X28.2 Y-15.213
Y-12.643
G0 Z5.
X12.828 Y-27.825
Z-6.664
G1 Z-6.964 F1500
X12.834 Y-27.829 Z-7.031
X12.853 Y-27.841 Z-7.094
X12.884 Y-27.859 Z-7.151
X12.925 Y-27.883 Z-7.199
X12.974 Y-27.912 Z-7.234
X13.028 Y-27.945 Z-7.256
X13.086 Y-27.979 Z-7.264
G3 X13.839 Y-28.2 I0.809 J1.36
G1 X16.172
X16.443 Y-28.186
X16.69 Y-28.154
X16.998 Y-28.088
X17.364 Y-27.979
X17.837 Y-27.794
X18.453 Y-27.495
X19.044 Y-27.149
X19.616 Y-26.773
X20.174 Y-26.377
X20.719 Y-25.964
X21.255 Y-25.537
X21.78 Y-25.098
X22.295 Y-24.648
X22.801 Y-24.187
X23.297 Y-23.715
X23.784 Y-23.234
X24.26 Y-22.742
X24.726 Y-22.241
X25.182 Y-21.73
X25.627 Y-21.211
X26.062 Y-20.682
X26.485 Y-20.144
X26.898 Y-19.598
X27.299 Y-19.043
X27.689 Y-18.48
X28.067 Y-17.91
X28.091 Y-17.872
X28.151 Y-17.755
X28.188 Y-17.628
X28.2 Y-17.497
Y-15.213
G0 Z5.
X15.16 Y-27.825
Z-6.664
G1 Z-6.964 F1500
X15.167 Y-27.829 Z-7.031
X15.186 Y-27.841 Z-7.094
X15.217 Y-27.859 Z-7.151
X15.258 Y-27.883 Z-7.199
X15.306 Y-27.912 Z-7.234
X15.361 Y-27.945 Z-7.256
X15.418 Y-27.979 Z-7.264
G3 X16.172 Y-28.2 I0.809 J1.36
G1 X18.349
X18.532 Y-28.191
X18.757 Y-28.161
X19.029 Y-28.103
X19.347 Y-28.008
X19.748 Y-27.852
X20.263 Y-27.602
X20.853 Y-27.254
X21.418 Y-26.868
X21.965 Y-26.456
X22.497 Y-26.026
X23.017 Y-25.581
X23.526 Y-25.123
X24.025 Y-24.655
X24.514 Y-24.176
X24.993 Y-23.687
X25.462 Y-23.188
X25.921 Y-22.68
X26.37 Y-22.164
X26.808 Y-21.638
X27.236 Y-21.104
X27.653 Y-20.561
X28.071 Y-19.994
X28.142 Y-19.869
X28.185 Y-19.733
X28.2 Y-19.59
Y-17.497
G3 X27.89 Y-17.208 Z-7.064 I-0.3 J-0.01
G1 X27.831 Y-17.216
X27.776 Y-17.235
X27.725 Y-17.264
X27.68 Y-17.303
X27.655 Y-17.331
X17.617 Y-28.133
X17.587 Y-28.155
X17.551 Y-28.164
X17.514 Y-28.16
X17.481 Y-28.143
X17.457 Y-28.114
X17.445 Y-28.079
X17.447 Y-28.042
X17.462 Y-28.008
X17.489 Y-27.981
X17.523 Y-27.967
X17.56 Y-27.966
X17.595 Y-27.979
G3 X17.887 Y-28.114 I0.809 J1.36
X18.349 Y-28.2 Z-7.264 I0.517 J1.496
G1 X20.37
X20.52 Y-28.192
X20.742 Y-28.16
X20.99 Y-28.103
X21.293 Y-28.006
X21.658 Y-27.858
X22.121 Y-27.624
X22.705 Y-27.267
X23.26 Y-26.866
X23.793 Y-26.437
X24.311 Y-25.989
X24.814 Y-25.526
X25.307 Y-25.05
X25.788 Y-24.564
X26.259 Y-24.067
X26.721 Y-23.561
X27.171 Y-23.046
X27.612 Y-22.523
X28.052 Y-21.979
X28.133 Y-21.847
X28.183 Y-21.702
X28.2 Y-21.549
Y-19.59
G0 Z5.
X19.359 Y-27.825
Z-6.664
G1 Z-6.964 F1500
X19.365 Y-27.829 Z-7.031
X19.384 Y-27.841 Z-7.094
X19.415 Y-27.859 Z-7.151
X19.456 Y-27.883 Z-7.199
X19.505 Y-27.912 Z-7.234
X19.559 Y-27.945 Z-7.256
X19.617 Y-27.979 Z-7.264
G3 X20.37 Y-28.2 I0.809 J1.36
G1 X22.236
X22.386 Y-28.192
X22.596 Y-28.16
X22.831 Y-28.104
X23.11 Y-28.014
X23.446 Y-27.874
X23.861 Y-27.662
X24.38 Y-27.341
X24.931 Y-26.935
X25.456 Y-26.496
X25.963 Y-26.036
X26.454 Y-25.559
X26.932 Y-25.069
X27.4 Y-24.569
X27.856 Y-24.059
X28.031 Y-23.856
X28.123 Y-23.719
X28.18 Y-23.564
X28.2 Y-23.4
G3 X27.89 Y-23.111 Z-7.064 I-0.3 J-0.01
G1 X27.827 Y-23.12
X27.767 Y-23.141
X27.714 Y-23.176
X27.649 Y-23.227
X22.071 Y-27.657
X22.06 Y-27.665
G3 X21.947 Y-27.89 I0.187 J-0.235
X22.236 Y-28.2 Z-7.264 I0.3 J-0.01
G1 X23.947
X24.113 Y-28.192
X24.308 Y-28.166
X24.517 Y-28.121
X24.765 Y-28.047
X25.064 Y-27.931
X25.41 Y-27.763
X25.84 Y-27.509
X26.396 Y-27.119
X26.922 Y-26.682
X27.425 Y-26.218
X27.909 Y-25.734
X28.009 Y-25.628
X28.113 Y-25.486
X28.178 Y-25.322
X28.2 Y-25.148
G3 X27.89 Y-24.858 Z-7.064 I-0.3 J-0.01
G1 X27.833 Y-24.866
X27.779 Y-24.884
X27.729 Y-24.912
X27.645 Y-24.97
X23.786 Y-27.654
G3 X23.657 Y-27.89 I0.171 J-0.246
X23.947 Y-28.2 Z-7.264 I0.3 J-0.01
G1 X25.657
X25.827 Y-28.191
X25.996 Y-28.169
X26.199 Y-28.126
X26.446 Y-28.052
X26.71 Y-27.949
X27.045 Y-27.787
X27.426 Y-27.562
X27.882 Y-27.242
X27.947 Y-27.188
X28.083 Y-27.036
X28.17 Y-26.851
X28.2 Y-26.649
G3 X27.89 Y-26.36 Z-7.064 I-0.3 J-0.01
G1 X27.843 Y-26.365
X27.797 Y-26.378
X27.754 Y-26.398
X27.639 Y-26.462
X25.522 Y-27.638
G3 X25.368 Y-27.89 I0.146 J-0.262
X25.657 Y-28.2 Z-7.264 I0.3 J-0.01
G1 X27.368
X27.518 Y-28.192
X27.665 Y-28.167
X27.68 Y-28.163
X27.888 Y-28.069
X28.055 Y-27.913
X28.163 Y-27.712
X28.2 Y-27.487
G3 X27.89 Y-27.197 Z-7.064 I-0.3 J-0.01
G1 X27.828 Y-27.206
X27.77 Y-27.227
X27.717 Y-27.26
X27.648 Y-27.313
X27.203 Y-27.657
X27.195 Y-27.663
G3 X27.078 Y-27.89 I0.183 J-0.237
X27.368 Y-28.2 Z-7.264 I0.3 J-0.01
G1 X27.834
X27.912 Y-28.199
X27.951 Y-28.194
X27.99 Y-28.183
X28.026 Y-28.167
X28.062 Y-28.145
X28.104 Y-28.11
X28.145 Y-28.062
X28.167 Y-28.026
X28.183 Y-27.99
X28.194 Y-27.951
X28.199 Y-27.912
X28.2 Y-27.834
Y-21.549
G3 X27.901 Y-21.259 I-0.3 J-0.01
G1 X27.9
X27.876 Y-21.26
X27.826 Y-21.278 Z-7.259
X27.777 Y-21.295 Z-7.245
X27.732 Y-21.311 Z-7.222
X27.699 Y-21.347 Z-7.185
X27.672 Y-21.377 Z-7.138
X27.652 Y-21.4 Z-7.084
X27.64 Y-21.414 Z-7.026
X27.635 Y-21.418 Z-6.964
G0 Z5.
X-30.294 Y-33.539
Z-0.1
G1 Z-0.4 F1500
X-30.292 Y-33.532 Z-0.467
X-30.287 Y-33.51 Z-0.53
X-30.278 Y-33.476 Z-0.587
X-30.266 Y-33.43 Z-0.635
X-30.252 Y-33.375 Z-0.67
X-30.236 Y-33.313 Z-0.692
X-30.22 Y-33.249 Z-0.7
G3 X-29.985 Y-31.615 I-7.419 J1.9
G1 Y-31.465
X-30.073 Y-30.787
X-30.12 Y-30.104
X-30.146 Y-29.42
X-30.16 Y-28.736
X-30.168 Y-28.051
X-30.172 Y-27.367
X-30.174 Y-26.682
X-30.177 Y-24.629
Y18.492
Y28.588
X-30.136 Y28.754
X-29.977 Y29.058
X-29.738 Y29.302
X-29.173 Y29.689
X-28.525 Y29.909
X-27.852 Y30.031
X-27.17 Y30.098
X-26.487 Y30.134
X-25.803 Y30.154
X-25.118 Y30.164
X-24.434 Y30.17
X-23.749 Y30.173
X-22.38 Y30.176
X-17.589 Y30.177
X9.789
X28.612
X28.776 Y30.129
X29.076 Y29.963
X29.316 Y29.72
X29.697 Y29.151
X29.913 Y28.502
X30.033 Y27.828
X30.099 Y27.147
X30.135 Y26.463
X30.154 Y25.779
X30.165 Y25.094
X30.17 Y24.41
X30.173 Y23.726
X30.176 Y22.357
X30.177 Y16.881
Y-0.915
Y-28.636
X30.123 Y-28.798
X29.95 Y-29.093
X29.703 Y-29.33
X29.13 Y-29.705
X28.48 Y-29.918
X27.805 Y-30.036
X27.124 Y-30.1
X26.44 Y-30.136
X25.756 Y-30.155
X25.072 Y-30.165
X24.387 Y-30.17
X23.703 Y-30.173
X22.334 Y-30.176
X16.858 Y-30.177
X7.96
X-27.204
X-27.289 Y-30.167
G3 X-27.513 Y-30.24 I-0.026 J-0.299
X-27.615 Y-30.453 I0.198 J-0.225
G1 Y-30.465
X-27.602 Y-30.517 Z-0.692
X-27.589 Y-30.567 Z-0.676
X-27.577 Y-30.612 Z-0.65
X-27.546 Y-30.646 Z-0.613
X-27.521 Y-30.674 Z-0.567
X-27.503 Y-30.694 Z-0.515
X-27.491 Y-30.707 Z-0.459
X-27.487 Y-30.711 Z-0.4
G0 Z5.
X14.887 Y16.716
Z-4.764
G3 X16.214 Y14.887 Z-4.852 I1.578 J-0.251 F500
X16.949 Y14.942 Z-4.878 I0.251 J1.578
X17.986 Y16.947 Z-4.965 I-0.484 J1.521
X17.606 Y17.578 Z-4.991 I-1.521 J-0.484
X15.352 Y17.604 Z-5.079 I-1.14 J-1.114
X14.959 Y16.982 Z-5.105 I1.114 J-1.14
X15.948 Y14.959 Z-5.193 I1.506 J-0.517
X16.679 Y14.888 Z-5.219 I0.517 J1.506
X18.04 Y16.677 Z-5.306 I-0.214 J1.575
X17.776 Y17.362 Z-5.332 I-1.575 J-0.214
X15.569 Y17.774 Z-5.42 I-1.31 J-0.898
X15.076 Y17.231 Z-5.446 I0.898 J-1.31
X15.699 Y15.076 Z-5.533 I1.389 J-0.766
X16.405 Y14.88 Z-5.559 I0.766 J1.389
X18.048 Y16.403 Z-5.647 I0.06 J1.583
X17.906 Y17.12 Z-5.673 I-1.583 J0.06
X15.81 Y17.903 Z-5.761 I-1.439 J-0.656
X15.234 Y17.455 Z-5.787 I0.656 J-1.439
X15.475 Y15.234 Z-5.874 I1.231 J-0.99
X16.134 Y14.92 Z-5.9 I0.99 J1.231
X18.008 Y16.132 Z-5.988 I0.331 J1.543
X17.992 Y16.861 Z-6.014 I-1.543 J0.331
X16.069 Y17.989 Z-6.102 I-1.525 J-0.397
X15.427 Y17.648 Z-6.128 I0.397 J-1.525
X15.283 Y15.426 Z-6.215 I1.039 J-1.183
X15.875 Y15.006 Z-6.241 I1.183 J1.039
X17.922 Y15.874 Z-6.329 I0.589 J1.457
X18.031 Y16.591 Z-6.355 I-1.457 J0.589
X16.339 Y18.028 Z-6.443 I-1.565 J-0.128
X15.649 Y17.804 Z-6.469 I0.128 J-1.565
X15.127 Y15.649 Z-6.556 I0.816 J-1.339
X15.636 Y15.134 Z-6.582 I1.339 J0.816
X17.793 Y15.635 Z-6.67 I0.828 J1.329
X18.024 Y16.32 Z-6.696 I-1.329 J0.828
X16.609 Y18.021 Z-6.783 I-1.557 J0.143
X15.894 Y17.919 Z-6.809 I-0.143 J-1.557
X15.012 Y15.894 Z-6.897 I0.571 J-1.454
X15.423 Y15.302 Z-6.923 I1.454 J0.571
X17.626 Y15.423 Z-7.011 I1.041 J1.162
X17.97 Y16.056 Z-7.037 I-1.162 J1.041
X16.874 Y17.967 Z-7.124 I-1.504 J0.408
X16.155 Y17.99 Z-7.15 I-0.408 J-1.504
X14.941 Y16.154 Z-7.238 I0.311 J-1.525
X15.243 Y15.502 Z-7.264 I1.525 J0.311
X17.426 Y15.243 Z-7.352 I1.221 J0.962
X17.872 Y15.805 Z-7.378 I-0.962 J1.221
X17.124 Y17.869 Z-7.465 I-1.406 J0.658
X16.422 Y18.014 Z-7.491 I-0.658 J-1.406
X14.917 Y16.421 Z-7.579 I0.044 J-1.55
X15.101 Y15.73 Z-7.605 I1.55 J0.044
X17.198 Y15.101 Z-7.693 I1.363 J0.734
X17.732 Y15.576 Z-7.719 I-0.734 J1.363
X17.353 Y17.729 Z-7.806 I-1.267 J0.887
X16.689 Y17.993 Z-7.832 I-0.887 J-1.267
X14.938 Y16.688 Z-7.92 I-0.223 J-1.528
X15.001 Y15.978 Z-7.946 I1.528 J-0.223
X16.951 Y15.001 Z-8.033 I1.463 J0.486
X17.556 Y15.375 Z-8.059 I-0.486 J1.463
X17.553 Y17.553 Z-8.147 I-1.091 J1.088
X16.947 Y17.926 Z-8.173 I-1.088 J-1.091
X15.005 Y16.946 Z-8.261 I-0.481 J-1.461
X14.945 Y16.238 Z-8.287 I1.461 J-0.481
X16.691 Y14.945 Z-8.374 I1.52 J0.226
X17.349 Y15.208 Z-8.4 I-0.226 J1.52
X17.72 Y17.346 Z-8.488 I-0.884 J1.254
X17.189 Y17.816 Z-8.514 I-1.254 J-0.884
X15.115 Y17.187 Z-8.602 I-0.723 J-1.351
X14.935 Y16.503 Z-8.628 I1.351 J-0.723
X16.426 Y14.935 Z-8.715 I1.53 J-0.039
X17.117 Y15.08 Z-8.741 I0.039 J1.53
X17.848 Y17.114 Z-8.829 I-0.652 J1.382
X17.408 Y17.666 Z-8.855 I-1.382 J-0.652
X15.265 Y17.405 Z-8.943 I-0.941 J-1.202
X14.97 Y16.765 Z-8.969 I1.202 J-0.941
X16.164 Y14.97 Z-9.056 I1.494 J-0.301
X16.867 Y14.995 Z-9.082 I0.301 J1.494
X17.933 Y16.865 Z-9.17 I-0.402 J1.468
X17.596 Y17.482 Z-9.196 I-1.468 J-0.402
X15.449 Y17.594 Z-9.283 I-1.13 J-1.018
X15.05 Y17.016 Z-9.309 I1.018 J-1.13
X15.913 Y15.05 Z-9.397 I1.415 J-0.551
X16.608 Y14.953 Z-9.423 I0.551 J1.415
X17.975 Y16.606 Z-9.511 I-0.143 J1.51
X17.75 Y17.269 Z-9.537 I-1.51 J-0.143
X15.662 Y17.747 Z-9.624 I-1.283 J-0.805
X15.171 Y17.249 Z-9.65 I0.805 J-1.283
X15.681 Y15.171 Z-9.738 I1.294 J-0.784
X16.346 Y14.957 Z-9.764 I0.784 J1.294
X17.971 Y16.344 Z-9.852 I0.119 J1.506
X17.864 Y17.033 Z-9.878 I-1.506 J0.119
X15.897 Y17.861 Z-9.965 I-1.397 J-0.569
X15.33 Y17.456 Z-9.991 I0.569 J-1.397
X15.474 Y15.33 Z-10.079 I1.135 J-0.991
X16.09 Y15.006 Z-10.105 I0.991 J1.135
X17.922 Y16.088 Z-10.193 I0.375 J1.457
X17.935 Y16.783 Z-10.219 I-1.457 J0.375
X16.148 Y17.932 Z-10.306 I-1.468 J-0.319
X15.522 Y17.632 Z-10.332 I0.319 J-1.468
X15.298 Y15.522 Z-10.42 I0.943 J-1.167
X15.846 Y15.098 Z-10.446 I1.167 J0.943
X17.83 Y15.845 Z-10.533 I0.618 J1.365
X17.962 Y16.524 Z-10.559 I-1.365 J0.618
X16.405 Y17.959 Z-10.647 I-1.495 J-0.061
X15.74 Y17.772 Z-10.673 I0.061 J-1.495
X15.159 Y15.74 Z-10.761 I0.725 J-1.307
X15.624 Y15.23 Z-10.787 I1.307 J0.725
X17.698 Y15.623 Z-10.874 I0.841 J1.233
X17.944 Y16.267 Z-10.9 I-1.233 J0.841
X16.663 Y17.941 Z-10.988 I-1.478 J0.197
X15.978 Y17.872 Z-11.014 I-0.197 J-1.478
X15.059 Y15.978 Z-11.102 I0.487 J-1.407
X15.428 Y15.398 Z-11.128 I1.407 J0.487
X17.53 Y15.427 Z-11.215 I1.036 J1.066
X17.882 Y16.017 Z-11.241 I-1.066 J1.036
X16.913 Y17.879 Z-11.329 I-1.416 J0.446
X16.229 Y17.929 Z-11.355 I-0.446 J-1.416
X15.002 Y16.228 Z-11.443 I0.237 J-1.464
X15.265 Y15.596 Z-11.469 I1.464 J0.237
X17.332 Y15.264 Z-11.556 I1.2 J0.868
X17.779 Y15.782 Z-11.582 I-0.868 J1.2
X17.147 Y17.776 Z-11.67 I-1.313 J0.681
X16.485 Y17.942 Z-11.696 I-0.681 J-1.313
X14.989 Y16.484 Z-11.783 I-0.019 J-1.477
X15.138 Y15.818 Z-11.809 I1.477 J-0.019
X17.11 Y15.138 Z-11.897 I1.326 J0.646
X17.637 Y15.57 Z-11.923 I-0.646 J1.326
X17.359 Y17.634 Z-12.011 I-1.171 J0.893
X16.738 Y17.91 Z-12.037 I-0.893 J-1.171
X15.021 Y16.736 Z-12.124 I-0.272 J-1.446
X15.053 Y16.058 Z-12.15 I1.446 J-0.272
X16.87 Y15.053 Z-12.238 I1.412 J0.406
X17.461 Y15.385 Z-12.264 I-0.406 J1.412
X17.543 Y17.458 Z-12.352 I-0.996 J1.077
X16.981 Y17.836 Z-12.378 I-1.077 J-0.996
X15.095 Y16.979 Z-12.465 I-0.515 J-1.372
X15.01 Y16.308 Z-12.491 I1.372 J-0.515
X16.621 Y15.01 Z-12.579 I1.455 J0.156
X17.257 Y15.235 Z-12.605 I-0.156 J1.455
X17.693 Y17.255 Z-12.693 I-0.792 J1.228
X17.207 Y17.722 Z-12.719 I-1.228 J-0.792
X15.209 Y17.205 Z-12.806 I-0.74 J-1.257
X15.011 Y16.561 Z-12.832 I1.257 J-0.74
X16.368 Y15.011 Z-12.92 I1.454 J-0.096
X17.032 Y15.122 Z-12.946 I0.096 J1.454
X17.806 Y17.029 Z-13.033 I-0.566 J1.34
X17.408 Y17.571 Z-13.059 I-1.34 J-0.566
X15.36 Y17.406 Z-13.147 I-0.942 J-1.106
X15.055 Y16.809 Z-13.173 I1.106 J-0.942
X16.121 Y15.055 Z-13.261 I1.41 J-0.344
X16.791 Y15.051 Z-13.287 I0.344 J1.41
X17.877 Y16.788 Z-13.374 I-0.326 J1.412
X17.58 Y17.388 Z-13.4 I-1.412 J-0.326
X15.543 Y17.578 Z-13.488 I-1.114 J-0.924
X15.141 Y17.044 Z-13.514 I0.924 J-1.114
X15.886 Y15.141 Z-13.602 I1.324 J-0.579
X16.542 Y15.022 Z-13.628 I0.579 J1.324
X17.906 Y16.54 Z-13.715 I-0.077 J1.441
X17.718 Y17.179 Z-13.741 I-1.441 J-0.077
X15.751 Y17.715 Z-13.829 I-1.251 J-0.715
X15.266 Y17.26 Z-13.855 I0.715 J-1.251
X15.67 Y15.266 Z-13.943 I1.199 J-0.795
X16.293 Y15.036 Z-13.969 I0.795 J1.199
X17.892 Y16.291 Z-14.056 I0.172 J1.427
X17.817 Y16.951 Z-14.082 I-1.427 J0.172
X15.98 Y17.814 Z-14.17 I-1.35 J-0.487
X15.425 Y17.451 Z-14.196 I0.487 J-1.35
X15.479 Y15.425 Z-14.283 I1.04 J-0.986
X16.052 Y15.093 Z-14.309 I0.986 J1.04
X17.835 Y16.05 Z-14.397 I0.413 J1.37
X17.874 Y16.71 Z-14.423 I-1.37 J0.413
X16.22 Y17.871 Z-14.511 I-1.408 J-0.246
X15.614 Y17.611 Z-14.537 I0.246 J-1.408
X15.32 Y15.614 Z-14.624 I0.851 J-1.146
X15.824 Y15.19 Z-14.65 I1.146 J0.851
X17.738 Y15.823 Z-14.738 I0.64 J1.273
X17.89 Y16.463 Z-14.764 I-1.273 J0.64
X16.464 Y17.889 I-1.425 J0.
X15.039 Y16.463 I0. J-1.425
X16.464 Y15.038 I1.425 J0.
X17.89 Y16.463 I0. J1.425
G1 X17.923 Y17.147 F1500
X17.943 Y17.23
X17.959 Y17.379
X17.945 Y17.529
X17.908 Y17.674
X17.851 Y17.813
